chohh7391/FIRe/scripts/configs/traj_save.csv
episode,step,raw_action_0,raw_action_1,raw_action_2,raw_action_3,raw_action_4,raw_action_5,raw_action_6,joint_pos_0,joint_pos_1,joint_pos_2,joint_pos_3,joint_pos_4,joint_pos_5,joint_pos_6,ft_force_x,ft_force_y,ft_force_z,peg_pos_x,peg_pos_y,peg_pos_z,hole_pos_x,hole_pos_y,hole_pos_z,processed_action_0,processed_action_1,processed_action_2,processed_action_3,processed_action_4,processed_action_5,obs_0,obs_1,obs_2,obs_3,obs_4,obs_5,obs_6,obs_7,obs_8,obs_9,obs_10,obs_11,obs_12,obs_13,obs_14,obs_15,obs_16,obs_17,obs_18,obs_19,obs_20,obs_21,obs_22,obs_23
2,0,1.0,0.6611417531967163,1.0,-1.0,1.0,-0.1648188829421997,-1.0,-0.28776633739471436,0.5265796184539795,0.34377163648605347,-2.040536880493164,-0.29417240619659424,2.521876573562622,1.321135401725769,-0.05659311264753342,-0.08160284161567688,-0.026198670268058777,0.5965810418128967,0.03358021751046181,0.050867024809122086,0.6124395728111267,0.0419236496090889,0.0016423389315605164,0.5998504757881165,0.03639914095401764,0.08108632266521454,-3.1264405250549316,0.30818068981170654,1.1733609639463793e-08,-0.017730355262756348,-0.006027404218912125,0.05407613888382912,0.0,0.9900553226470947,-0.14067311584949493,0.0,-0.05452394112944603,0.0019799170549958944,-0.01670926623046398,0.0,0.0,-0.06266982853412628,-0.31107625365257263,-1.9790472984313965,-0.5556377172470093,7.294997692108154,-0.23631829023361206,-0.07624277472496033,1.0692007541656494,0.0,0.0,0.4119546413421631,-1.0
2,1,1.0,0.327911913394928,1.0,-0.1665405035018921,0.31869712471961975,1.0,-0.8144794702529907,-0.34978431463241577,0.5381807088851929,0.40837565064430237,-2.038431167602539,-0.35100507736206055,2.5159270763397217,1.361603856086731,0.08658292144536972,-0.07886919379234314,-0.07138849049806595,0.5973978638648987,0.03499384969472885,0.051883090287446976,0.6124395728111267,0.0419236496090889,0.0016423389315605164,0.6044893264770508,0.037915583699941635,0.08082667738199234,-3.1088008880615234,0.45272746682167053,1.929715587323244e-08,-0.016322314739227295,-0.0048467256128787994,0.055144455283880234,0.0,0.9900537729263306,-0.14066942036151886,0.0,0.03282308205962181,-0.021087972447276115,-0.009891985915601254,0.0,0.0,0.07714365422725677,1.7496089935302734,0.7320046424865723,-0.6480310559272766,7.294997692108154,-0.1435416340827942,-0.045913927257061005,1.0640077590942383,0.0,0.0,0.45608314871788025,-0.9860780835151672
2,2,1.0,0.7441121935844421,0.2168591469526291,-0.8896056413650513,1.0,1.0,-0.47065532207489014,-0.39668887853622437,0.5524742007255554,0.4589483439922333,-2.030771255493164,-0.397382527589798,2.5105373859405518,1.403328537940979,0.26686275005340576,-0.05716448649764061,0.09089155495166779,0.6002438068389893,0.03673219680786133,0.05304306000471115,0.6124395728111267,0.0419236496090889,0.0016423389315605164,0.608780026435852,0.04087986797094345,0.07764805853366852,-3.0854899883270264,0.5910646319389343,2.4451505709066623e-08,-0.014014363288879395,-0.0027414225041866302,0.05656806007027626,0.0,0.9892667531967163,-0.1459657996892929,0.0,-0.006229877006262541,0.02723201923072338,0.023997722193598747,0.0,0.0,-0.03207755461335182,0.14039593935012817,0.7150131464004517,0.31690719723701477,7.294997692108154,-0.05772719532251358,0.013371754437685013,1.000435471534729,0.0,0.0,0.49690014123916626,-0.947399377822876
2,3,1.0,-0.14146241545677185,-0.7625311017036438,0.7298534512519836,1.0,-0.4325876832008362,-1.0,-0.425738662481308,0.5706701874732971,0.49153801798820496,-2.0168094635009766,-0.43040910363197327,2.5046775341033936,1.4129339456558228,0.16494742035865784,0.04801361262798309,0.3776128590106964,0.6042399406433105,0.038214392960071564,0.052598435431718826,0.6124395728111267,0.0419236496090889,0.0016423389315605164,0.6127487421035767,0.040298908948898315,0.07103317975997925,-3.1224241256713867,0.3465139865875244,1.5387227492169586e-08,-0.010053634643554688,-0.0014445073902606964,0.05558367446064949,0.0,0.9898249506950378,-0.14192736148834229,0.0,0.006144046317785978,0.018456725403666496,-0.041026171296834946,0.0,0.0,-0.47185078263282776,0.059404343366622925,-0.40894633531570435,0.4451855421066284,7.294997692108154,0.021647494286298752,0.001752583310008049,0.868137776851654,0.0,0.0,0.42714887857437134,-0.9513466954231262
2,4,1.0,0.07417820394039154,0.18322142958641052,0.10018722712993622,-0.9898422360420227,-0.1374618411064148,-0.9565120339393616,-0.4384014904499054,0.5918089151382446,0.5068050622940063,-1.9987852573394775,-0.4526676535606384,2.501446008682251,1.4119017124176025,0.10417838394641876,0.06332361698150635,0.3345296382904053,0.6089643239974976,0.03920789808034897,0.04998737573623657,0.6124395728111267,0.0419236496090889,0.0016423389315605164,0.6164196729660034,0.04057065770030022,0.0684632807970047,-3.128606081008911,0.2853596806526184,5.008979897525023e-09,-0.005951046943664551,-0.0005924776196479797,0.05339953675866127,0.0,0.9911665916442871,-0.13194230198860168,0.0,-0.05440234765410423,0.01501187589019537,0.011188386939466,0.0,0.0,0.2685079872608185,0.2818143963813782,-0.021765902638435364,-0.8158422708511353,7.294997692108154,0.09506569802761078,0.007187596522271633,0.8167397975921631,0.0,0.0,0.3847789764404297,-0.9517343640327454
2,5,-0.3625193238258362,0.15925411880016327,0.026876240968704224,0.5275995135307312,-1.0,0.6091673374176025,-0.17410027980804443,-0.4401760697364807,0.6133806705474854,0.5103293061256409,-1.9803831577301025,-0.4660539925098419,2.498380184173584,1.4037764072418213,-0.10006466507911682,0.06643038988113403,0.23233619332313538,0.6127321124076843,0.0398208312690258,0.045401908457279205,0.6124395728111267,0.0419236496090889,0.0016423389315605164,0.6147027611732483,0.04114123433828354,0.06549960374832153,-3.130615472793579,0.26239660382270813,1.1855181725195507e-08,-0.0019437670707702637,-0.00017546489834785461,0.04827180132269859,0.0,0.9919833540916443,-0.1258389949798584,0.0,-0.027623174712061882,0.004210620652884245,-0.05371570214629173,0.0,0.0,-0.01721515692770481,0.8771638870239258,-0.9313470721244812,0.9857250452041626,7.294997692108154,0.06072729080915451,0.018599078059196472,0.7574663162231445,0.0,0.0,0.4016176760196686,-0.8933786749839783
2,6,-0.9501286149024963,0.11350542306900024,-0.9283574223518372,1.0,-0.19610810279846191,0.46391385793685913,-0.9913514852523804,-0.43555858731269836,0.6342549324035645,0.5067144632339478,-1.96358323097229,-0.47245165705680847,2.4945335388183594,1.3911197185516357,-0.16818895936012268,0.061884552240371704,0.1734664887189865,0.6148474216461182,0.04018814116716385,0.03920222446322441,0.6124395728111267,0.0419236496090889,0.0016423389315605164,0.6109098792076111,0.04149733483791351,0.05917416885495186,-3.129995107650757,0.2696969509124756,1.1531453125712687e-08,0.0006402730941772461,-0.0001470707356929779,0.042581554502248764,0.0,0.9928879737854004,-0.11865339428186417,0.0,0.006923675071448088,-0.026039330288767815,0.004982649814337492,0.0,0.0,-0.02698025107383728,1.0390115976333618,1.2061891555786133,-0.5130545496940613,7.294997692108154,-0.015130046755075455,0.025721106678247452,0.6309576034545898,0.0,0.0,0.40629255771636963,-0.9007308483123779
2,7,-1.0,0.5995733141899109,-0.4152531325817108,1.0,-1.0,0.3786403238773346,-1.0,-0.428688108921051,0.653343915939331,0.5007167458534241,-1.9506056308746338,-0.4750767946243286,2.49064040184021,1.3780269622802734,-0.23226210474967957,-0.0011802376247942448,0.09152525663375854,0.6150346994400024,0.040837954729795456,0.032057955861091614,0.6124395728111267,0.0419236496090889,0.0016423389315605164,0.6072145104408264,0.04365050420165062,0.05524864420294762,-3.1306450366973877,0.26204410195350647,1.1324128301737346e-08,0.0010328292846679688,0.0007906891405582428,0.03572956845164299,0.0,0.9937378168106079,-0.11142142117023468,0.0,-0.003290176158770919,0.017063317820429802,0.03700553998351097,0.0,0.0,0.10792043060064316,-0.731660008430481,-0.42043399810791016,0.12448526918888092,7.294997692108154,-0.08903733640909195,0.06878452003002167,0.5524471402168274,0.0,0.0,0.4042174816131592,-0.908180296421051
2,8,-1.0,-0.2511349320411682,-1.0,0.5322861671447754,0.1542164534330368,0.008269146084785461,-1.0,-0.4229726791381836,0.6685057878494263,0.4954167902469635,-1.9437384605407715,-0.4792429804801941,2.4908595085144043,1.3691390752792358,1.0401555299758911,-0.8258882761001587,11.530876159667969,0.614493727684021,0.041575852781534195,0.026571104303002357,0.6124395728111267,0.0419236496090889,0.0016423389315605164,0.6037964820861816,0.04245012253522873,0.04942365363240242,-3.135272741317749,0.19917316734790802,4.4336405657929845e-09,0.0008857846260070801,0.001351047307252884,0.028522126376628876,0.0,0.9942576885223389,-0.106689453125,0.0,0.06379365175962448,-0.012858509086072445,-0.020303873345255852,0.0,0.0,-0.1466018408536911,1.1225714683532715,-1.7946163415908813,11.544914245605469,7.294997692108154,-0.15739843249320984,0.044776901602745056,0.43594732880592346,0.0,0.0,0.3745044767856598,-0.9150707125663757
2,9,-1.0,-1.0,1.0,0.4512127637863159,0.9367103576660156,-0.7136766314506531,-0.9157217741012573,-0.4275730848312378,0.6709025502204895,0.5016801357269287,-1.9416472911834717,-0.4882206916809082,2.4798736572265625,1.3665348291397095,-0.22957143187522888,-0.11644599586725235,3.0335495471954346,0.6131452918052673,0.04127093777060509,0.026409128680825233,0.6124395728111267,0.0419236496090889,0.0016423389315605164,0.6006349325180054,0.038529980927705765,0.05154005438089371,-3.1361966133117676,0.18405331671237946,-8.045226707054098e-09,-0.0004582405090332031,0.0013505294919013977,0.02815994620323181,0.0,0.9948480129241943,-0.10115715861320496,0.0,0.04450320824980736,0.011662243865430355,-0.013913958333432674,0.0,0.0,0.04661910980939865,0.2279454469680786,-2.518404245376587,3.0624635219573975,7.294997692108154,-0.2206295132637024,-0.03362596407532692,0.4782753884792328,0.0,0.0,0.2928444445133209,-0.9151196479797363
2,10,0.9027193784713745,-1.0,-0.0744357705116272,0.2552902102470398,0.8564366698265076,1.0,-0.5698091387748718,-0.4319871664047241,0.6706162691116333,0.50565505027771,-1.9444197416305542,-0.4974623918533325,2.477458953857422,1.3635648488998413,-0.2669535279273987,1.5673776865005493,1.7080938816070557,0.6120498180389404,0.04053725302219391,0.02610187791287899,0.6124395728111267,0.0419236496090889,0.0016423389315605164,0.6048498749732971,0.03490401431918144,0.04946621134877205,-3.1370577812194824,0.16873995959758759,-2.9934388301455783e-09,-0.0022429227828979492,0.0008977428078651428,0.02803698554635048,0.0,0.9952976107597351,-0.09662041813135147,0.0,-0.023546217009425163,0.03287672623991966,0.006990730296820402,0.0,0.0,-0.03812064602971077,-1.1002352237701416,0.7351018786430359,2.4292759895324707,7.294997692108154,-0.13633039593696594,-0.10614527016878128,0.43679848313331604,0.0,0.0,0.34591132402420044,-0.8892066478729248
2,11,1.0,0.07363388687372208,-1.0,0.34688907861709595,-0.2188463807106018,0.9133133292198181,-0.5891974568367004,-0.4350428581237793,0.6703295707702637,0.5076237916946411,-1.9474875926971436,-0.5014771223068237,2.4832513332366943,1.355934500694275,0.4205571413040161,1.8287543058395386,4.335312843322754,0.6121861338615417,0.04054797813296318,0.02607051655650139,0.6124395728111267,0.0419236496090889,0.0016423389315605164,0.6091135144233704,0.03557857125997543,0.04407515004277229,-3.134962558746338,0.20399940013885498,8.600871126418497e-09,-0.0017772316932678223,0.0007945634424686432,0.02793528139591217,0.0,0.9957993626594543,-0.09139434248209,0.0,0.02650737576186657,0.026130525395274162,-5.4091211495688185e-05,0.0,0.0,1.1362584700691514e-05,0.7029703855514526,-0.5419365167617798,4.473386287689209,7.294997692108154,-0.051057107746601105,-0.09265416115522385,0.3289772570133209,0.0,0.0,0.3884906768798828,-0.8666931986808777
2,12,1.0,0.7207872271537781,-1.0,-1.0,0.9615123867988586,1.0,-0.9344329237937927,-0.4367772936820984,0.670360803604126,0.5081787109375,-1.9509766101837158,-0.502960741519928,2.4914612770080566,1.3638514280319214,0.37870872020721436,0.9557899236679077,5.840114593505859,0.6124044060707092,0.04090765863656998,0.025682389736175537,0.6124395728111267,0.0419236496090889,0.0016423389315605164,0.6130572557449341,0.038630712777376175,0.0390886515378952,-3.119359016418457,0.3731015622615814,1.5647637852111984e-08,-0.002240419387817383,0.0010611414909362793,0.027281180024147034,0.0,0.99547278881073,-0.09487553685903549,0.0,-0.03804444894194603,0.02132311277091503,-0.031129268929362297,0.0,0.0,0.006084623746573925,1.9764567613601685,-0.2132207155227661,6.717966556549072,7.294997692108154,0.02781704068183899,-0.03161133453249931,0.22924724221229553,0.0,0.0,0.4343799948692322,-0.8717765808105469
2,13,0.2944231629371643,0.19044345617294312,-0.4250451624393463,0.4060145318508148,1.0,0.9575843811035156,-0.7638590931892395,-0.43701091408729553,0.6712358593940735,0.5075951218605042,-1.9543085098266602,-0.5054628849029541,2.500485897064209,1.3758816719055176,0.32716405391693115,0.7103855013847351,3.79540753364563,0.6125551462173462,0.04153857007622719,0.024769924581050873,0.6124395728111267,0.0419236496090889,0.0016423389315605164,0.6140576004981995,0.039463892579078674,0.036633655428886414,-3.1096057891845703,0.4471653401851654,2.4618481475613407e-08,-0.0016363263130187988,0.0010436736047267914,0.026591408997774124,0.0,0.9949841499328613,-0.09980577975511551,0.0,0.03293752297759056,-0.052130069583654404,-0.0035905835684388876,0.0,0.0,-0.007541785482317209,1.2384076118469238,0.4693183898925781,4.871126174926758,7.294997692108154,0.04782388359308243,-0.014947745949029922,0.18014737963676453,0.0,0.0,0.47364264726638794,-0.8636781573295593
2,14,0.433893084526062,-0.34340688586235046,0.8155543208122253,-0.6490261554718018,0.042642414569854736,0.45153042674064636,-0.37199294567108154,-0.4331042170524597,0.6749721765518188,0.501348078250885,-1.9564940929412842,-0.5084604620933533,2.5126006603240967,1.3874224424362183,0.9903819561004639,1.1855875253677368,1.6451623439788818,0.6127493977546692,0.04150822386145592,0.021979602053761482,0.6124395728111267,0.0419236496090889,0.0016423389315605164,0.6155061721801758,0.03823146969079971,0.03901778906583786,-3.1074249744415283,0.46207690238952637,2.3212201938349608e-08,-0.0019797086715698242,0.001611068844795227,0.02399812638759613,0.0,0.9944730401039124,-0.10465741157531738,0.0,-0.01652955822646618,0.021157262846827507,0.022302119061350822,0.0,0.0,-0.030478613451123238,3.207301139831543,2.2541542053222656,1.9710848331451416,7.294997692108154,0.0767955482006073,-0.039596203714609146,0.22783002257347107,0.0,0.0,0.47198328375816345,-0.8267807960510254
2,15,0.018393859267234802,0.039717912673950195,-0.5495116114616394,-0.29294776916503906,-0.9864751100540161,0.16053882241249084,-0.14995917677879333,-0.4272870719432831,0.6810548901557922,0.4931880831718445,-1.9574341773986816,-0.5113168358802795,2.525439977645874,1.3980109691619873,1.3482154607772827,0.8040090203285217,1.3263883590698242,0.6128782629966736,0.04162583500146866,0.018075499683618546,0.6124395728111267,0.0419236496090889,0.0016423389315605164,0.6152870059013367,0.03852906450629234,0.036101099103689194,-3.1126654148101807,0.4253460466861725,1.7643730032546046e-08,-0.0018385052680969238,0.0018592365086078644,0.019997812807559967,0.0,0.9941109418869019,-0.1079326644539833,0.0,-0.0035834310110658407,0.03896221145987511,0.012062340043485165,0.0,0.0,0.21757587790489197,0.15607750415802002,1.7483118772506714,1.6653071641921997,7.294997692108154,0.07241293042898178,-0.033644262701272964,0.16949622333049774,0.0,0.0,0.44861164689064026,-0.7759903073310852
2,16,-0.6420220136642456,0.07909826934337616,-1.0,-0.18718141317367554,-0.23810406029224396,1.0,0.13351306319236755,-0.4206114411354065,0.6888735294342041,0.48393091559410095,-1.9575941562652588,-0.5146192908287048,2.537761688232422,1.4099197387695312,-0.09686432033777237,0.8044083118438721,0.8178166747093201,0.6127073764801025,0.0415804460644722,0.013250358402729034,0.6124395728111267,0.0419236496090889,0.0016423389315605164,0.6126063466072083,0.038952089846134186,0.03171299025416374,-3.1030209064483643,0.49078088998794556,2.7675813640826163e-08,-0.002059638500213623,0.0017212815582752228,0.014750681817531586,0.0,0.9933947324752808,-0.11431410908699036,0.0,0.0009799002436921,0.026282964274287224,-0.038262154906988144,0.0,0.0,-0.1486770212650299,-0.07306007295846939,0.7907469868659973,0.8593883514404297,7.294997692108154,0.018799815326929092,-0.02518375962972641,0.0817340835928917,0.0,0.0,0.48998934030532837,-0.7077387571334839
2,17,0.1844741404056549,0.3433302342891693,-1.0,-0.19435077905654907,0.0021947622299194336,0.9416896104812622,0.26182153820991516,-0.4136032164096832,0.698752224445343,0.47457531094551086,-1.9560377597808838,-0.5196098685264587,2.550795555114746,1.4229615926742554,0.06904511153697968,0.2593845725059509,0.3547983765602112,0.6129265427589417,0.04170837998390198,0.007948426529765129,0.6124395728111267,0.0419236496090889,0.0016423389315605164,0.6132280230522156,0.040334805846214294,0.02765418030321598,-3.100588321685791,0.5059220194816589,3.7082227066775886e-08,-0.001883864402770996,0.0019609369337558746,0.0100083127617836,0.0,0.9929248094558716,-0.11815034598112106,0.0,0.005071162711828947,0.04047676548361778,0.03068670444190502,0.0,0.0,0.09071584790945053,-1.071748971939087,1.8075482845306396,1.0173285007476807,7.294997692108154,0.03123246133327484,0.002470521256327629,0.0005578547716140747,0.0,0.0,0.5238861441612244,-0.6349803805351257
2,18,0.22932077944278717,0.49606645107269287,-1.0,-0.38822415471076965,-0.36446473002433777,0.384459912776947,0.31963369250297546,-0.40777555108070374,0.7096102833747864,0.4670047163963318,-1.9534807205200195,-0.5259575843811035,2.561723470687866,1.437073826789856,0.9615261554718018,0.030882813036441803,1.5993952751159668,0.6129915118217468,0.0420234315097332,0.002557411789894104,0.6124395728111267,0.0419236496090889,0.0016423389315605164,0.6139712333679199,0.04218684136867523,0.023899951949715614,-3.0980918407440186,0.5209912657737732,3.349054367163262e-08,-0.0013638734817504883,0.0022097229957580566,0.00448242574930191,0.0,0.9922805428504944,-0.12332931160926819,0.0,0.06355046480894089,0.03278106078505516,0.0153140714392066,0.0,0.0,0.0008254057029262185,0.813056468963623,0.4130556881427765,0.1415400505065918,7.294997692108154,0.046097543090581894,0.03951128572225571,-0.07452669739723206,0.0,0.0,0.5134232044219971,-0.5633435845375061
2,19,0.304159551858902,0.5051177740097046,-1.0,-0.7097592949867249,-0.18811634182929993,1.0,0.4443172812461853,-0.40815499424934387,0.7156883478164673,0.46751582622528076,-1.9482290744781494,-0.5350692868232727,2.5612854957580566,1.4531618356704712,1.8422152996063232,-0.6673391461372375,7.754539489746094,0.612962543964386,0.041991524398326874,0.0017378143966197968,0.6124395728111267,0.0419236496090889,0.0016423389315605164,0.6149395704269409,0.04393386095762253,0.02042745240032673,-3.095431327819824,0.5365722179412842,4.285112353841214e-08,-0.0012370944023132324,0.001549597829580307,0.002716412767767906,0.0,0.9915933609008789,-0.12876485288143158,0.0,-0.050847526639699936,-0.015539824031293392,-0.016627682372927666,0.0,0.0,-0.10305923223495483,2.6608290672302246,-1.4683024883270264,7.015947341918945,7.294997692108154,0.06546321511268616,0.07445164769887924,-0.14397670328617096,0.0,0.0,0.5499372482299805,-0.48772597312927246
2,20,-0.13873261213302612,0.6054088473320007,-0.6501877307891846,-0.4355548024177551,-1.0,1.0,0.7157257795333862,-0.4127524495124817,0.7192007303237915,0.4741497337818146,-1.943549394607544,-0.5422483682632446,2.5516200065612793,1.468072772026062,0.15979330241680145,-1.0761020183563232,4.916291236877441,0.6129557490348816,0.04202782362699509,0.0017129294574260712,0.6124395728111267,0.0419236496090889,0.0016423389315605164,0.6141733527183533,0.045926082879304886,0.018528081476688385,-3.0927350521087646,0.5519013404846191,5.076430298345258e-08,-0.0002549886703491211,0.00214221328496933,0.00293736532330513,0.0,0.9909163117408752,-0.13404108583927155,0.0,0.054717060178518295,0.039120014756917953,0.011872350238263607,0.0,0.0,-0.18501511216163635,1.1803239583969116,1.1400251388549805,4.4024434089660645,7.294997692108154,0.050139814615249634,0.11429610848426819,-0.18196412920951843,0.0,0.0,0.5837111473083496,-0.39741572737693787
2,21,0.23763242363929749,0.22894287109375,-0.3066614866256714,-0.8287426233291626,-0.3061946630477905,0.7728341817855835,0.8269487023353577,-0.4172426164150238,0.7228280305862427,0.4808199107646942,-1.9386520385742188,-0.5502267479896545,2.5415170192718506,1.4834496974945068,0.16353751718997955,-1.199096441268921,4.6937384605407715,0.6129509806632996,0.042034730315208435,0.001692233607172966,0.6124395728111267,0.0419236496090889,0.0016423389315605164,0.6148768663406372,0.04635625332593918,0.018060199916362762,-3.090010404586792,0.5669576525688171,5.4356899426011296e-08,-0.0003402829170227051,0.0018773935735225677,0.0022304076701402664,0.0,0.9907028079032898,-0.13582083582878113,0.0,0.029761789366602898,-0.004574059974402189,-0.07148734480142593,0.0,0.0,0.5561700463294983,-0.9867640733718872,-0.6249955892562866,5.120779037475586,7.294997692108154,0.06420976668596268,0.12289950996637344,-0.19132176041603088,0.0,0.0,0.5979034900665283,-0.305536150932312
2,22,0.14352445304393768,0.12523218989372253,-0.35493364930152893,-1.0,-0.9497209787368774,1.0,0.8640498518943787,-0.4211912453174591,0.7264664173126221,0.48716306686401367,-1.933518409729004,-0.5582336187362671,2.530989408493042,1.4989420175552368,0.20468583703041077,-1.2452174425125122,4.9480695724487305,0.6129528880119324,0.04203180968761444,0.0016723163425922394,0.6124395728111267,0.0419236496090889,0.0016423389315605164,0.6151744723320007,0.046365007758140564,0.017446305602788925,-3.087232828140259,0.5818923115730286,6.082097314674684e-08,-0.000446319580078125,0.0015002787113189697,0.002928059548139572,0.0,0.9897327423095703,-0.14286115765571594,0.0,0.0011229513911530375,-0.06312980502843857,0.013771354220807552,0.0,0.0,0.014781391248106956,-0.5166481733322144,-1.5352684259414673,6.025276184082031,7.294997692108154,0.07016175240278244,0.12307456135749817,-0.20359963178634644,0.0,0.0,0.6280778646469116,-0.21776729822158813
2,23,0.19653266668319702,0.6197839975357056,-0.08222419023513794,-0.2701348662376404,-0.5016391277313232,0.3977854251861572,0.9074416756629944,-0.4243484139442444,0.7301141023635864,0.4931265115737915,-1.9280369281768799,-0.5665671229362488,2.519753932952881,1.5150388479232788,0.12272181361913681,-2.28108811378479,4.847257614135742,0.6129432916641235,0.04206578806042671,0.0016530510038137436,0.6124395728111267,0.0419236496090889,0.0016423389315605164,0.615648627281189,0.048228729516267776,0.017901722341775894,-3.0843751430511475,0.5968552231788635,5.595778063138823e-08,-0.0005995631217956543,0.002535250037908554,0.003250373527407646,0.0,0.9890009760856628,-0.14789116382598877,0.0,-0.03348111733794212,0.03908782824873924,0.05389026924967766,0.0,0.0,-0.03869485482573509,-1.1920486688613892,-4.626002311706543,5.237394332885742,7.294997692108154,0.07964497059583664,0.16034898161888123,-0.19449129700660706,0.0,0.0,0.6107961535453796,-0.1333286017179489
2,24,0.10450981557369232,0.43731459975242615,0.07076908648014069,-0.44633904099464417,-0.1962125599384308,0.8797327280044556,0.9629948735237122,-0.42676496505737305,0.7334470748901367,0.498482346534729,-1.9226481914520264,-0.5736190676689148,2.5081586837768555,1.5305601358413696,0.3028373420238495,-3.4815094470977783,4.490185260772705,0.6128615140914917,0.04215705022215843,0.0016471538692712784,0.6124395728111267,0.0419236496090889,0.0016423389315605164,0.6157419085502625,0.04926794022321701,0.01889701560139656,-3.0813872814178467,0.612092912197113,6.005497255046066e-08,-0.0004905462265014648,0.002167917788028717,0.003463560715317726,0.0,0.9881954789161682,-0.15318743884563446,0.0,-0.02348899655044079,-0.030182896181941032,0.07903463393449783,0.0,0.0,-0.1306345909833908,-0.8889094591140747,-3.4368157386779785,5.567983627319336,7.294997692108154,0.08151089400053024,0.1811332255601883,-0.17458544671535492,0.0,0.0,0.6309778690338135,-0.05105754733085632
2,25,0.3992374837398529,0.613162100315094,0.11049416661262512,-0.9884980320930481,0.5741773843765259,1.0,0.9791985750198364,-0.4284663796424866,0.7359488010406494,0.5024307370185852,-1.9183965921401978,-0.5781382918357849,2.498877763748169,1.544562578201294,0.6447240114212036,-4.463448524475098,3.7296955585479736,0.6126890182495117,0.04216156154870987,0.001667441800236702,0.6124395728111267,0.0419236496090889,0.0016423389315605164,0.616934061050415,0.050888970494270325,0.019966671243309975,-3.0781474113464355,0.6281830668449402,6.571056587745261e-08,-0.0001837611198425293,0.002894654870033264,0.003152819350361824,0.0,0.987389862537384,-0.1582271307706833,0.0,0.014870165847241879,0.04330560192465782,0.038974057883024216,0.0,0.0,-0.09568749368190765,0.7403613924980164,-6.104819297790527,2.8803374767303467,7.294997692108154,0.1053539514541626,0.21355384588241577,-0.15319231152534485,0.0,0.0,0.6586702466011047,0.026255641132593155
2,26,-0.21678663790225983,0.010332062840461731,-0.10259170085191727,-0.33412882685661316,0.06425532698631287,1.0,1.0,-0.4294392168521881,0.737864077091217,0.5052239298820496,-1.914914846420288,-0.5812142491340637,2.4912972450256348,1.5581185817718506,0.18910358846187592,-3.8694393634796143,3.6699814796447754,0.6125715374946594,0.042148176580667496,0.0016798470169305801,0.6124395728111267,0.0419236496090889,0.0016423389315605164,0.6157253384590149,0.05012645572423935,0.020156532526016235,-3.074625015258789,0.6452017426490784,7.058697804041003e-08,-0.0006066560745239258,0.0024460628628730774,0.002992779016494751,0.0,0.9865958094596863,-0.16304899752140045,0.0,-0.032951828092336655,-0.019457189366221428,0.0177933257073164,0.0,0.0,0.066276416182518,0.779002845287323,-4.495537757873535,3.603295087814331,7.294997692108154,0.0811796560883522,0.19830355048179626,-0.14939510822296143,0.0,0.0,0.6842845678329468,0.09932803362607956
2,27,0.19477534294128418,-0.02281976491212845,-0.20871096849441528,-0.4132745563983917,-0.6614654064178467,0.8076677322387695,1.0,-0.42979109287261963,0.7393085956573486,0.5070369839668274,-1.9120347499847412,-0.5831419825553894,2.485231876373291,1.5710890293121338,0.6102453470230103,-3.383812665939331,3.8176779747009277,0.6124643683433533,0.0421304889023304,0.001691306009888649,0.6124395728111267,0.0419236496090889,0.0016423389315605164,0.6161515712738037,0.049296773970127106,0.019933970645070076,-3.0708932876586914,0.6627359390258789,7.113062139296744e-08,0.00017338991165161133,0.002541143447160721,0.003357376903295517,0.0,0.985578179359436,-0.1690080314874649,0.0,0.06093978509306908,-0.014051645062863827,0.059846337884664536,0.0,0.0,-0.01855812780559063,-0.061684370040893555,-4.643362045288086,4.789409160614014,7.294997692108154,0.08970418572425842,0.1817098706960678,-0.15384633839130402,0.0,0.0,0.6935436129570007,0.1669168770313263
2,28,-0.2889586389064789,0.1638210564851761,-0.14308109879493713,-0.9660251140594482,-0.3205909729003906,1.0,1.0,-0.4297320544719696,0.7403016686439514,0.5081605315208435,-1.9098416566848755,-0.5843639969825745,2.4805097579956055,1.583916425704956,-0.2869095206260681,-3.0115458965301514,3.776681900024414,0.6123654246330261,0.04212062433362007,0.0017034132033586502,0.6124395728111267,0.0419236496090889,0.0016423389315605164,0.6147307753562927,0.04922965168952942,0.01997436210513115,-3.066984176635742,0.6805973052978516,7.593515505277537e-08,-0.00029391050338745117,0.0025953203439712524,0.002955954521894455,0.0,0.984541118144989,-0.1748763918876648,0.0,0.00818252470344305,-0.014884023927152157,0.010212956927716732,0.0,0.0,-0.04624328017234802,0.8039035201072693,-2.9432783126831055,4.197905540466309,7.294997692108154,0.06128830835223198,0.18036745488643646,-0.15303850173950195,0.0,0.0,0.7165409326553345,0.22943368554115295
2,29,0.1902673989534378,0.2663709819316864,-0.28903236985206604,-0.4998040795326233,0.006343930959701538,0.5244854688644409,1.0,-0.4293464422225952,0.7409841418266296,0.5086970925331116,-1.908085584640503,-0.5848157405853271,2.4768126010894775,1.5965746641159058,-0.1722673773765564,-3.164877414703369,3.9784936904907227,0.6122763752937317,0.04211226478219032,0.001711362972855568,0.6124395728111267,0.0419236496090889,0.0016423389315605164,0.6152147650718689,0.049552347511053085,0.019464094191789627,-3.0628135204315186,0.699127197265625,7.21289978855566e-08,5.537271499633789e-05,0.00275493785738945,0.002885846421122551,0.0,0.9834966659545898,-0.18057887256145477,0.0,0.05293607339262962,-0.001469850423745811,0.0009407847537659109,0.0,0.0,0.014355309307575226,1.103410243988037,-2.578108310699463,4.298069000244141,7.294997692108154,0.07096724212169647,0.18682138621807098,-0.1632438600063324,0.0,0.0,0.7021285891532898,0.2872590720653534
2,30,0.19255994260311127,0.09229310601949692,-0.13612130284309387,-0.9318631887435913,-0.9579484462738037,1.0,0.9874000549316406,-0.4287440776824951,0.7414803504943848,0.5088537335395813,-1.9065685272216797,-0.5847740769386292,2.4737370014190674,1.6089386940002441,0.1982116550207138,-3.1014199256896973,4.003334999084473,0.612208902835846,0.04210546612739563,0.0017179865390062332,0.6124395728111267,0.0419236496090889,0.0016423389315605164,0.6156709790229797,0.049197666347026825,0.01956586167216301,-3.0584845542907715,0.7178277373313904,7.543909674723182e-08,-0.00014460086822509766,0.0028306879103183746,0.00260191410779953,0.0,0.9823401570320129,-0.1867184191942215,0.0,0.030384061858057976,0.0034560260828584433,-0.033957209438085556,0.0,0.0,-0.022836169227957726,0.13027550280094147,-2.929734706878662,3.0560779571533203,7.294997692108154,0.08009188622236252,0.1797277331352234,-0.16120851039886475,0.0,0.0,0.7244816422462463,0.33979955315589905
2,31,0.0396171398460865,0.35195600986480713,-0.19397598505020142,-0.07749128341674805,0.5435234308242798,0.9011168479919434,1.0,-0.4280575215816498,0.7418000102043152,0.508773922920227,-1.9053760766983032,-0.5844445824623108,2.4713327884674072,1.6210838556289673,-0.08001578599214554,-3.375737190246582,3.954068422317505,0.6121363639831543,0.04209687188267708,0.0017229672521352768,0.6124395728111267,0.0419236496090889,0.0016423389315605164,0.615519106388092,0.049843888729810715,0.019442912191152573,-3.0540552139282227,0.7364453077316284,7.731491535878376e-08,-8.738040924072266e-05,0.002812463790178299,0.002941928803920746,0.0,0.9812095761299133,-0.19250188767910004,0.0,0.039246078580617905,-0.0034189221914857626,0.00626519275829196,0.0,0.0,0.024248065426945686,-2.1301896572113037,-2.224411964416504,5.219788074493408,7.294997692108154,0.07705455273389816,0.19265221059322357,-0.1636674702167511,0.0,0.0,0.7377368807792664,0.3893427848815918
2,32,0.3457152545452118,0.4130305051803589,-0.1337451934814453,-0.836762547492981,0.33719202876091003,0.20639827847480774,1.0,-0.42751067876815796,0.7415251731872559,0.5079193711280823,-1.9054111242294312,-0.5805690288543701,2.4717166423797607,1.6307090520858765,-1.0360509157180786,-3.5554041862487793,5.210445880889893,0.6120904684066772,0.042136311531066895,0.0017169453203678131,0.6124395728111267,0.0419236496090889,0.0016423389315605164,0.6165271401405334,0.05067078024148941,0.019555184990167618,-3.0493345260620117,0.7557538747787476,6.920186024217401e-08,-0.0007287859916687012,0.0029349327087402344,0.0027798302471637726,0.0,0.9799670577049255,-0.19873259961605072,0.0,-0.032150741666555405,0.0074842567555606365,-0.012994407676160336,0.0,0.0,0.032056473195552826,-0.12343770265579224,-3.122053384780884,5.942182540893555,7.294997692108154,0.09721557796001434,0.2091899961233139,-0.1614220291376114,0.0,0.0,0.6978638172149658,0.43516814708709717
2,33,-0.29223328828811646,0.32636702060699463,-0.029322465881705284,-0.11467918753623962,0.037277862429618835,0.9230406284332275,0.9954767227172852,-0.4270377457141876,0.7410475015640259,0.5069286227226257,-1.9060195684432983,-0.5773752927780151,2.4734034538269043,1.6419347524642944,-1.2942813634872437,-3.6520657539367676,5.1181135177612305,0.6120631098747253,0.04219710826873779,0.00171726755797863,0.6124395728111267,0.0419236496090889,0.0016423389315605164,0.61506587266922,0.051110442727804184,0.020050840452313423,-3.044095277786255,0.7765884399414062,7.095052723116169e-08,-0.0003104209899902344,0.0027377642691135406,0.003423977643251419,0.0,0.9785315990447998,-0.20572184026241302,0.0,0.01790284924209118,-0.02007901482284069,0.06416647881269455,0.0,0.0,-0.022148096933960915,-1.1109018325805664,-3.284240484237671,4.6471052169799805,7.294997692108154,0.06799028813838959,0.21798327565193176,-0.15150892734527588,0.0,0.0,0.7147617340087891,0.4772152304649353
2,34,0.1769586205482483,0.37122035026550293,-0.03621921315789223,0.12424677610397339,-0.6338430643081665,1.0,0.9712087512016296,-0.42673662304878235,0.7403898239135742,0.5060246586799622,-1.9071332216262817,-0.5751063227653503,2.475620746612549,1.6550933122634888,-1.527389407157898,-3.965454578399658,5.0630693435668945,0.6120353937149048,0.04224778339266777,0.001711178570985794,0.6124395728111267,0.0419236496090889,0.0016423389315605164,0.6154747605323792,0.051685407757759094,0.02048342302441597,-3.0382637977600098,0.7990984320640564,7.25952347124803e-08,-0.00015598535537719727,0.002371162176132202,0.0026802029460668564,0.0,0.9770460724830627,-0.21270687878131866,0.0,0.04307269677519798,-0.06636365503072739,-0.02433009259402752,0.0,0.0,0.05968281999230385,0.8362389802932739,-4.194870948791504,3.9607458114624023,7.294997692108154,0.07616756856441498,0.22948260605335236,-0.14285728335380554,0.0,0.0,0.736166775226593,0.5142858028411865
2,35,0.02436385303735733,0.3221041262149811,-0.07782180607318878,-0.7137199640274048,-0.588638961315155,1.0,1.0,-0.4265528619289398,0.7396588325500488,0.5051733255386353,-1.9085822105407715,-0.5737293362617493,2.4785780906677246,1.6701115369796753,-1.709259271621704,-4.006383419036865,4.656336307525635,0.6120414733886719,0.042273201048374176,0.001707499846816063,0.6124395728111267,0.0419236496090889,0.0016423389315605164,0.6152803897857666,0.052032940089702606,0.02072744444012642,-3.0317955017089844,0.8232988715171814,7.554385206276493e-08,-0.000610649585723877,0.0030242204666137695,0.003077017143368721,0.0,0.9750509262084961,-0.22170057892799377,0.0,-0.009040831588208675,0.008266120217740536,0.023764146491885185,0.0,0.0,-0.22061316668987274,-3.0044147968292236,-4.10548734664917,4.336694240570068,7.294997692108154,0.07228007912635803,0.23643317818641663,-0.13797685503959656,0.0,0.0,0.755965530872345,0.5507351160049438
2,36,-0.07373274117708206,0.20122915506362915,-0.12678131461143494,0.059465616941452026,-0.11917755007743835,0.8333115577697754,1.0,-0.4264959990978241,0.7388604879379272,0.5044069290161133,-1.9103296995162964,-0.5733562111854553,2.482017755508423,1.6868767738342285,-1.6779099702835083,-3.9488303661346436,4.6918559074401855,0.6120657324790955,0.04230372980237007,0.0017000380903482437,0.6124395728111267,0.0419236496090889,0.0016423389315605164,0.6147325038909912,0.051900848746299744,0.020769450813531876,-3.0247418880462646,0.8488475680351257,7.416760894329855e-08,-0.0007165670394897461,0.002902016043663025,0.0031069479882717133,0.0,0.9734512567520142,-0.22872813045978546,0.0,-0.01975536160171032,-0.009143649600446224,0.02829551510512829,0.0,0.0,0.09056226909160614,-3.529909133911133,-2.8050146102905273,2.8492605686187744,7.294997692108154,0.0613228864967823,0.23379138112068176,-0.13713671267032623,0.0,0.0,0.7617697715759277,0.5844491720199585
2,37,0.0023140786215662956,0.2924269139766693,-0.19437819719314575,-0.6655696034431458,0.3782811462879181,0.8805604577064514,0.9501609206199646,-0.4265667200088501,0.7379632592201233,0.5036901831626892,-1.912419319152832,-0.5737062096595764,2.485952615737915,1.7052229642868042,-1.848015308380127,-4.034646034240723,4.821342945098877,0.6120855808258057,0.042317695915699005,0.0016904063522815704,0.6124395728111267,0.0419236496090889,0.0016423389315605164,0.6145111322402954,0.05212085694074631,0.020554672926664352,-3.017049789428711,0.875793993473053,7.411170344084894e-08,-0.00041353702545166016,0.0030282698571681976,0.0024979859590530396,0.0,0.9712427854537964,-0.23793266713619232,0.0,0.020706651732325554,0.004443525802344084,-0.04306777939200401,0.0,0.0,-0.02203291282057762,-1.8421659469604492,-4.688867568969727,5.386728286743164,7.294997692108154,0.056894708424806595,0.23819155991077423,-0.1414322704076767,0.0,0.0,0.7706841826438904,0.6118931770324707
2,38,-0.3992935121059418,0.1915597915649414,-0.17739276587963104,-0.8326940536499023,-0.1553531289100647,1.0,1.0,-0.4267738163471222,0.7369615435600281,0.5030491948127747,-1.9148534536361694,-0.5747221112251282,2.4903881549835205,1.725110650062561,-1.8604158163070679,-3.8681740760803223,4.8271942138671875,0.6120919585227966,0.04232349619269371,0.001681467518210411,0.6124395728111267,0.0419236496090889,0.0016423389315605164,0.6127994656562805,0.05194588750600815,0.02041974477469921,-3.008654832839966,0.9042130708694458,7.53587414692447e-08,-0.00041615962982177734,0.003139328211545944,0.0028832554817199707,0.0,0.9689922332763672,-0.24697166681289673,0.0,0.026543138548731804,0.015345810912549496,0.004608481656759977,0.0,0.0,0.018943646922707558,-4.870022773742676,-4.135615348815918,4.683635234832764,7.294997692108154,0.0226611215621233,0.23469220101833344,-0.14413084089756012,0.0,0.0,0.7878926396369934,0.641017735004425
2,39,0.32979345321655273,0.18447209894657135,-0.11929045617580414,-0.7159767746925354,-0.5184194445610046,0.19514495134353638,1.0,-0.42708519101142883,0.7358567714691162,0.5024479627609253,-1.9176135063171387,-0.5764590501785278,2.495337724685669,1.7457865476608276,-1.8999847173690796,-3.7500343322753906,4.871616840362549,0.6121052503585815,0.042332783341407776,0.001673756167292595,0.6124395728111267,0.0419236496090889,0.0016423389315605164,0.6139518618583679,0.051757458597421646,0.02051294967532158,-2.9998691082000732,0.9329473376274109,6.678263275716745e-08,-0.0008336305618286133,0.0031226351857185364,0.002918858081102371,0.0,0.9664961099624634,-0.25661683082580566,0.0,-0.016329286620020866,0.010759680531919003,0.010070799849927425,0.0,0.0,-0.07432756572961807,-2.3693385124206543,-4.569456577301025,5.931282043457031,7.294997692108154,0.04570915549993515,0.23092356324195862,-0.14226675033569336,0.0,0.0,0.7434113025665283,0.6679567098617554
2,40,0.09179601073265076,0.09507856518030167,-0.13284452259540558,0.6044824123382568,-0.10135488212108612,0.5806550979614258,1.0,-0.4274570047855377,0.7346508502960205,0.5018153190612793,-1.9206950664520264,-0.5788448452949524,2.5008575916290283,1.7669998407363892,-1.898329257965088,-3.428217887878418,4.9148783683776855,0.612123429775238,0.04234003275632858,0.0016618352383375168,0.6124395728111267,0.0419236496090889,0.0016423389315605164,0.6141247749328613,0.05124774947762489,0.020548302680253983,-2.9908127784729004,0.9615840315818787,6.346529346501484e-08,-0.0007039308547973633,0.0026943162083625793,0.002512838691473007,0.0,0.9642760753631592,-0.2648546099662781,0.0,0.007116794120520353,-0.0425487719476223,-0.03679453954100609,0.0,0.0,0.17490004003047943,-0.030943632125854492,-1.3945295810699463,5.667434215545654,7.294997692108154,0.04916764050722122,0.22072938084602356,-0.1415596902370453,0.0,0.0,0.7311976552009583,0.6928741335868835
2,41,0.09524118900299072,0.2436474859714508,-0.06683185696601868,-0.6445969343185425,-0.030060172080993652,-0.016088426113128662,0.9799151420593262,-0.4278431832790375,0.7333706617355347,0.5010671615600586,-1.9239614009857178,-0.581551194190979,2.5068607330322266,1.788445234298706,-2.039052963256836,-3.3319296836853027,4.571465015411377,0.612151563167572,0.04231193661689758,0.0016543101519346237,0.6124395728111267,0.0419236496090889,0.0016423389315605164,0.61429762840271,0.05133374035358429,0.020828692242503166,-2.981477737426758,0.9901491403579712,5.0693738984364245e-08,-0.00043660402297973633,0.002855580300092697,0.00293799489736557,0.0,0.9612034559249878,-0.2758261561393738,0.0,0.04446744546294212,-0.021053550764918327,0.015812961384654045,0.0,0.0,-0.26188936829566956,-2.118833303451538,-2.973886251449585,3.6942925453186035,7.294997692108154,0.052625127136707306,0.22244922816753387,-0.1359519064426422,0.0,0.0,0.6751193404197693,0.7144144773483276
2,42,0.452657550573349,0.3171522319316864,-0.062160149216651917,-0.20996853709220886,-0.6363157033920288,0.26219263672828674,1.0,-0.4282524585723877,0.7321109771728516,0.5003767013549805,-1.9272050857543945,-0.5843722820281982,2.512782573699951,1.810007095336914,-2.32446551322937,-3.4353604316711426,4.630683898925781,0.6121929883956909,0.04228978604078293,0.0016527250409126282,0.6124395728111267,0.0419236496090889,0.0016423389315605164,0.6157985925674438,0.05168908089399338,0.0211055688560009,-2.9718635082244873,1.0186421871185303,4.2312315429171576e-08,-0.0009682774543762207,0.003053668886423111,0.0026764292269945145,0.0,0.9588220119476318,-0.284001886844635,0.0,-0.012931822799146175,0.0030881164129823446,-0.014584287069737911,0.0,0.0,-0.0077456701546907425,-3.977849245071411,-3.8689146041870117,4.017383575439453,7.294997692108154,0.08264464139938354,0.22955599427223206,-0.13041436672210693,0.0,0.0,0.6441321969032288,0.7358455657958984
2,43,0.22322720289230347,0.25938844680786133,-0.15726129710674286,-1.0,0.8878304958343506,0.7905614376068115,1.0,-0.4286692142486572,0.7309041619300842,0.49974948167800903,-1.9303022623062134,-0.587293267250061,2.518406867980957,1.8316556215286255,-2.396399974822998,-3.4709746837615967,4.670470714569092,0.612236499786377,0.04225684702396393,0.0016595274209976196,0.6124395728111267,0.0419236496090889,0.0016423389315605164,0.616326093673706,0.05180101469159126,0.02100483514368534,-2.9619696140289307,1.0470629930496216,4.319463542401536e-08,-0.0011039376258850098,0.0035282932221889496,0.0026844311505556107,0.0,0.9562098979949951,-0.29266461730003357,0.0,-0.022895334288477898,0.06097465381026268,-0.01384489145129919,0.0,0.0,0.1194053590297699,-3.317675828933716,-3.111027956008911,4.726539611816406,7.294997692108154,0.09319433569908142,0.23179471492767334,-0.13242903351783752,0.0,0.0,0.6551206707954407,0.7556684017181396
2,44,0.029868103563785553,0.30763036012649536,-0.16867733001708984,-0.6995571851730347,0.35168832540512085,0.8066267371177673,0.9249026775360107,-0.4290485680103302,0.7297998070716858,0.4991551637649536,-1.9331746101379395,-0.5902494192123413,2.523733139038086,1.8533461093902588,-2.6139347553253174,-3.5040340423583984,4.58974027633667,0.6122927069664001,0.042222291231155396,0.0016675200313329697,0.6124395728111267,0.0419236496090889,0.0016423389315605164,0.6160885095596313,0.05208555981516838,0.020868826657533646,-2.9517927169799805,1.0754188299179077,4.371129946889596e-08,-0.0014837384223937988,0.0030987299978733063,0.0024338308721780777,0.0,0.9530860781669617,-0.30265697836875916,0.0,-0.06469487398862839,0.010026096366345882,-0.044471245259046555,0.0,0.0,-0.09286076575517654,-3.0046656131744385,-2.9050981998443604,4.5844292640686035,7.294997692108154,0.08844216167926788,0.2374856323003769,-0.13514921069145203,0.0,0.0,0.6664900779724121,0.7683681845664978
2,45,-0.20072847604751587,0.5303059816360474,-0.16626712679862976,-0.8350573778152466,-0.21177268028259277,0.2202719748020172,1.0,-0.4293827414512634,0.7288583517074585,0.49864107370376587,-1.9356240034103394,-0.5928155779838562,2.5282676219940186,1.8740252256393433,-3.225984573364258,-3.9270195960998535,4.687766075134277,0.6123288869857788,0.0421820804476738,0.001678522676229477,0.6124395728111267,0.0419236496090889,0.0016423389315605164,0.6150034666061401,0.05318426340818405,0.020752068608999252,-2.94783616065979,1.0862172842025757,3.6254217405939926e-08,-0.0009749531745910645,0.003128495067358017,0.0021985340863466263,0.0,0.9501866102218628,-0.3116280138492584,0.0,0.00010013579594669864,0.015217064879834652,-0.07322094589471817,0.0,0.0,-0.13529309630393982,-3.0113143920898438,-2.9488394260406494,4.882814407348633,7.294997692108154,0.06674202531576157,0.2594596743583679,-0.1374843865633011,0.0,0.0,0.6330046653747559,0.7857504487037659
2,46,0.20742297172546387,0.31929874420166016,-0.21118493378162384,-0.7860196828842163,0.5694050788879395,0.18272945284843445,1.0,-0.4296647310256958,0.7281373739242554,0.498251348733902,-1.9375556707382202,-0.5948116779327393,2.5319581031799316,1.8792165517807007,-3.2342007160186768,-4.053610801696777,4.843087673187256,0.6123930215835571,0.04218610003590584,0.0016897674649953842,0.6124395728111267,0.0419236496090889,0.0016423389315605164,0.615531325340271,0.05340878665447235,0.020475532859563828,-2.9887290000915527,0.9680408835411072,3.423103933641869e-08,-0.000741124153137207,0.0030032284557819366,0.002790633589029312,0.0,0.9498035311698914,-0.3127565383911133,0.0,0.029382703825831413,-0.0005985795869491994,-0.0030174849089235067,0.0,0.0,-0.0015678132185712457,-2.935396909713745,-2.030590057373047,5.787779808044434,7.294997692108154,0.077299103140831,0.2639501690864563,-0.1430150866508484,0.0,0.0,0.5992148518562317,0.8018283247947693
2,47,0.4420459270477295,0.3453545570373535,-0.026471847668290138,0.033893316984176636,0.5524357557296753,0.8957614898681641,1.0,-0.42991137504577637,0.7275430560112,0.4979255795478821,-1.9391703605651855,-0.596444845199585,2.535059690475464,1.8861702680587769,-3.353466272354126,-4.251955986022949,4.639977931976318,0.6124467849731445,0.04218598082661629,0.0016969125717878342,0.6124395728111267,0.0419236496090889,0.0016423389315605164,0.6168999075889587,0.05371423065662384,0.020912818610668182,-2.9623255729675293,1.0460554361343384,3.5662448993889484e-08,-0.0013820528984069824,0.0031491555273532867,0.0025439485907554626,0.0,0.9488183856010437,-0.3157021105289459,0.0,-0.04641294106841087,0.01632213406264782,-0.03311052545905113,0.0,0.0,-0.0778990313410759,-3.3229575157165527,-4.401176452636719,5.441816329956055,7.294997692108154,0.1046706885099411,0.2700589895248413,-0.1342693716287613,0.0,0.0,0.6214684844017029,0.8166996836662292
2,48,-0.16863393783569336,0.41402706503868103,-0.04949101433157921,-0.6354998350143433,0.40283069014549255,0.2969849109649658,1.0,-0.4300714433193207,0.7271486520767212,0.4976690411567688,-1.940415859222412,-0.5980409383773804,2.5376930236816406,1.8897994756698608,-3.6761560440063477,-4.371253967285156,3.8251242637634277,0.6125199198722839,0.042230479419231415,0.0016949139535427094,0.6124395728111267,0.0419236496090889,0.0016423389315605164,0.6158744692802429,0.05425441637635231,0.021230917423963547,-2.9911105632781982,0.9606571793556213,3.322194075394691e-08,-0.0006251931190490723,0.0037253722548484802,0.002594131976366043,0.0,0.9483317732810974,-0.3171192407608032,0.0,0.04118442162871361,0.08109613507986069,-0.025995073840022087,0.0,0.0,-0.1662112921476364,-4.436227321624756,-4.609327793121338,3.837965965270996,7.294997692108154,0.084161177277565,0.2808627486228943,-0.1279073804616928,0.0,0.0,0.5971183776855469,0.8304550051689148
2,49,0.11060131341218948,0.30974793434143066,-0.08242588490247726,-0.5541970729827881,0.24725425243377686,0.3256007730960846,1.0,-0.43026605248451233,0.7268338799476624,0.49758076667785645,-1.941288948059082,-0.5989874601364136,2.5393521785736084,1.8852720260620117,-3.732260227203369,-4.546173572540283,4.239090919494629,0.6125684380531311,0.04225056990981102,0.0017069969326257706,0.6124395728111267,0.0419236496090889,0.0016423389315605164,0.6159736514091492,0.05436279997229576,0.021401571109890938,-3.0133068561553955,0.888587236404419,3.131763648411834e-08,-0.0008740425109863281,0.003353312611579895,0.0029800329357385635,0.0,0.9493880271911621,-0.3139054477214813,0.0,0.011694430373609066,0.034153904765844345,0.018467677757143974,0.0,0.0,0.006069742143154144,-2.6682777404785156,-6.218777656555176,5.118119239807129,7.294997692108154,0.08614531904459,0.2830303907394409,-0.12449432909488678,0.0,0.0,0.5767430067062378,0.8431780934333801
2,50,0.1847735047340393,0.2374943643808365,-0.08111724257469177,-0.7484557628631592,-0.323935329914093,0.7981325387954712,1.0,-0.4303704500198364,0.7266860604286194,0.4974914491176605,-1.941802978515625,-0.59956955909729,2.5405375957489014,1.8829666376113892,-3.4255573749542236,-4.54234504699707,4.470704078674316,0.6126174330711365,0.042273927479982376,0.0017110742628574371,0.6124395728111267,0.0419236496090889,0.0016423389315605164,0.6163437366485596,0.054191943258047104,0.02156432718038559,-2.9953386783599854,0.9473919868469238,3.3908097663015724e-08,-0.0009891390800476074,0.003102146089076996,0.0026255901902914047,0.0,0.9494116902351379,-0.3138215243816376,0.0,-0.005228518974035978,0.001825690153054893,-0.024135185405611992,0.0,0.0,-0.306970477104187,-4.555095672607422,-5.313961029052734,3.162693738937378,7.294997692108154,0.09354665130376816,0.2796132564544678,-0.12123920023441315,0.0,0.0,0.593356728553772,0.8549464344978333
2,51,0.22528432309627533,0.04764252156019211,-0.17266064882278442,-0.20528937876224518,0.1712191104888916,0.29137805104255676,1.0,-0.43047064542770386,0.7265709638595581,0.497467041015625,-1.9421796798706055,-0.6001633405685425,2.5413007736206055,1.8774012327194214,-3.2309112548828125,-4.148684501647949,4.48897123336792,0.6126431822776794,0.04229434207081795,0.001713516190648079,0.6124395728111267,0.0419236496090889,0.0016423389315605164,0.6168380379676819,0.053321558982133865,0.02137138694524765,-3.0195610523223877,0.8670968413352966,3.2402628136196654e-08,-0.001081228256225586,0.003027603030204773,0.002406526356935501,0.0,0.9505156874656677,-0.3104901909828186,0.0,-0.017173288390040398,-0.007879435084760189,-0.05076974257826805,0.0,0.0,-0.1917150467634201,-2.3268864154815674,-4.595227241516113,4.250699996948242,7.294997692108154,0.10343260318040848,0.262205570936203,-0.12509800493717194,0.0,0.0,0.5706954598426819,0.8658316135406494
2,52,-0.07958202064037323,0.07167765498161316,-0.1858174204826355,-0.14386944472789764,0.28587862849235535,0.6769734621047974,0.9496317505836487,-0.43053916096687317,0.7265123724937439,0.4974580407142639,-1.9424198865890503,-0.6006686687469482,2.541823625564575,1.8738999366760254,-2.8712358474731445,-3.8190231323242188,4.7337327003479,0.6126653552055359,0.042308609932661057,0.0017136745154857635,0.6124395728111267,0.0419236496090889,0.0016423389315605164,0.6161513328552246,0.052606672048568726,0.021143559366464615,-3.0112807750701904,0.8954287171363831,3.377589052888652e-08,-0.0012187957763671875,0.0031611844897270203,0.002620311453938484,0.0,0.9513603448867798,-0.3078916668891907,0.0,-0.035011764615774155,0.00752985430881381,-0.024965329095721245,0.0,0.0,-0.006364435888826847,-1.5027155876159668,-4.835328102111816,4.768150806427002,7.294997692108154,0.08969869464635849,0.2479078471660614,-0.12965455651283264,0.0,0.0,0.578670859336853,0.872120201587677
2,53,0.18018604815006256,0.06508524715900421,-0.30337005853652954,-0.6129868626594543,-0.1692720502614975,0.8695069551467896,1.0,-0.43058696389198303,0.726482093334198,0.49745306372642517,-1.9425616264343262,-0.6009736657142639,2.5421199798583984,1.8727593421936035,-2.6220221519470215,-3.399266242980957,4.905411720275879,0.6126732230186462,0.0423128679394722,0.001711912453174591,0.6124395728111267,0.0419236496090889,0.0016423389315605164,0.6164908409118652,0.05192069709300995,0.02049175463616848,-2.987264394760132,0.972551703453064,3.538740500630411e-08,-0.0007430911064147949,0.0032013989984989166,0.0025621000677347183,0.0,0.9518559575080872,-0.3063327968120575,0.0,0.021643636748194695,0.012626945041120052,-0.03146879002451897,0.0,0.0,0.2198246419429779,-1.5007469654083252,-4.208460807800293,6.055819511413574,7.294997692108154,0.09648911654949188,0.23418834805488586,-0.14269064366817474,0.0,0.0,0.6004959940910339,0.8817166686058044
2,54,0.13186821341514587,0.1294051855802536,-0.19591280817985535,-0.1690482199192047,-0.2721843719482422,0.4415796995162964,1.0,-0.43062710762023926,0.7264755368232727,0.4975019693374634,-1.9426177740097046,-0.6013069152832031,2.5421807765960693,1.8740041255950928,-2.3591411113739014,-3.1452250480651855,4.9610748291015625,0.6126763224601746,0.04231128841638565,0.0017128046602010727,0.6124395728111267,0.0419236496090889,0.0016423389315605164,0.61662358045578,0.051527537405490875,0.02029205858707428,-3.0006332397460938,0.930486798286438,3.478018228975088e-08,-0.000924527645111084,0.0032960958778858185,0.0028684325516223907,0.0,0.9512547254562378,-0.30827096104621887,0.0,0.0002217292640125379,0.023466644808650017,0.005295574199408293,0.0,0.0,-0.1523226499557495,-1.927596926689148,-1.9564476013183594,4.733070373535156,7.294997692108154,0.09914405643939972,0.2263251394033432,-0.14668458700180054,0.0,0.0,0.5885704755783081,0.8905929923057556
2,55,-0.4769099950790405,0.13297578692436218,-0.09463193267583847,-0.23694287240505219,-0.10123999416828156,0.29814282059669495,1.0,-0.430647611618042,0.7264922261238098,0.49752405285835266,-1.9426130056381226,-0.6015557646751404,2.5422446727752686,1.8677507638931274,-2.334355592727661,-2.9383790493011475,4.689091682434082,0.6127021908760071,0.04232041910290718,0.001715637743473053,0.6124395728111267,0.0419236496090889,0.0016423389315605164,0.61446213722229,0.05117727816104889,0.020487366244196892,-3.0235323905944824,0.8531449437141418,3.310494989250401e-08,-0.0007909536361694336,0.00301462784409523,0.0028345081955194473,0.0,0.9526957869529724,-0.3037097454071045,0.0,0.014083384536206722,-0.010054259561002254,0.0008402019157074392,0.0,0.0,0.22139112651348114,-2.2270054817199707,-3.5323123931884766,5.196079730987549,7.294997692108154,0.05591541901230812,0.21931995451450348,-0.1427784115076065,0.0,0.0,0.5667760372161865,0.898803174495697
2,56,0.05717438459396362,0.30543628334999084,-0.1267642378807068,-0.46933040022850037,-0.723537802696228,0.19018954038619995,1.0,-0.430640310049057,0.7265421748161316,0.49753522872924805,-1.942561388015747,-0.6017255783081055,2.5423083305358887,1.8599148988723755,-2.293970823287964,-3.173035144805908,4.870583534240723,0.6127393841743469,0.04233911260962486,0.0017151068896055222,0.6124395728111267,0.0419236496090889,0.0016423389315605164,0.6144669055938721,0.05150039866566658,0.020547453314065933,-3.0338895320892334,0.8155484199523926,2.6512905648701235e-08,-0.0007102489471435547,0.0031310468912124634,0.0022433754056692123,0.0,0.953623354434967,-0.3007940649986267,0.0,0.020341871306300163,0.00275015807710588,-0.06988651305437088,0.0,0.0,-0.0011494799982756376,-2.0602660179138184,-3.037501573562622,5.60522985458374,7.294997692108154,0.05600989609956741,0.2257823646068573,-0.14157666265964508,0.0,0.0,0.5385159850120544,0.90639728307724
2,57,0.022574879229068756,0.3345704674720764,-0.03331220895051956,-0.5538406372070312,-0.7305693626403809,0.5809202790260315,0.9140053987503052,-0.4306524395942688,0.726565420627594,0.4975700080394745,-1.942535638809204,-0.6018097400665283,2.542280912399292,1.8520987033843994,-2.3300366401672363,-3.395029306411743,4.839324474334717,0.6127678751945496,0.04234231263399124,0.0017159413546323776,0.6124395728111267,0.0419236496090889,0.0016423389315605164,0.6143414378166199,0.05190858617424965,0.020953677594661713,-3.0370843410491943,0.8035694360733032,2.7101977551069467e-08,-0.0010468363761901855,0.0030963346362113953,0.0030521415174007416,0.0,0.9548527598381042,-0.2968740165233612,0.0,-0.020699499174952507,-0.0022982058580964804,0.027128754183650017,0.0,0.0,0.038089167326688766,-2.540782928466797,-4.520447731018066,6.85456657409668,7.294997692108154,0.05350084230303764,0.23394612967967987,-0.13345220685005188,0.0,0.0,0.5416980981826782,0.9069682359695435
2,58,-0.21806129813194275,0.38091787695884705,0.0065224021673202515,-0.3519030213356018,0.1292227804660797,0.5678231120109558,1.0,-0.43066900968551636,0.7265642881393433,0.4976003170013428,-1.9425283670425415,-0.6019446849822998,2.5422050952911377,1.8443517684936523,-2.6998391151428223,-3.684122085571289,4.345122814178467,0.6127774119377136,0.04234303906559944,0.0017162952572107315,0.6124395728111267,0.0419236496090889,0.0016423389315605164,0.6133224964141846,0.052460044622421265,0.02147888019680977,-3.040222644805908,0.7916128635406494,2.768891604887358e-08,-0.0003362298011779785,0.0031897909939289093,0.002888469025492668,0.0,0.9559658765792847,-0.29326748847961426,0.0,0.06522416323423386,0.009549557231366634,0.007239505182951689,0.0,0.0,0.0007013189024291933,-1.919334888458252,-4.180729866027832,3.1143264770507812,7.294997692108154,0.033122092485427856,0.24497529864311218,-0.12294813990592957,0.0,0.0,0.5436586141586304,0.9139496088027954
2,59,0.47464418411254883,0.210651695728302,-0.03964586183428764,-0.26738086342811584,0.31410831212997437,0.3483816087245941,1.0,-0.4306623339653015,0.7265645265579224,0.49758395552635193,-1.9425373077392578,-0.6020945906639099,2.542245864868164,1.8366115093231201,-2.572758197784424,-3.6636297702789307,4.069643974304199,0.6127857565879822,0.042347993701696396,0.00171600840985775,0.6124395728111267,0.0419236496090889,0.0016423389315605164,0.6149791479110718,0.05233125761151314,0.02179144136607647,-3.0433104038238525,0.7796576619148254,2.5440458628622764e-08,-0.0005298852920532227,0.0026192888617515564,0.002554953098297119,0.0,0.9570871591567993,-0.28959351778030396,0.0,0.041284557431936264,-0.057979073375463486,-0.03251507505774498,0.0,0.0,-0.02063959464430809,-3.585061550140381,-2.3584675788879395,3.925813913345337,7.294997692108154,0.06625509262084961,0.24239957332611084,-0.11669690907001495,0.0,0.0,0.5290045142173767,0.9204070568084717
2,60,-0.044854629784822464,0.15982946753501892,-0.05545642226934433,0.1715857982635498,1.0,0.7294681668281555,0.9861953258514404,-0.4306698143482208,0.7265554666519165,0.49759966135025024,-1.9425501823425293,-0.6023384928703308,2.542229652404785,1.8290679454803467,-2.4391019344329834,-3.59274959564209,4.22428035736084,0.6127975583076477,0.0423407256603241,0.0017163902521133423,0.6124395728111267,0.0419236496090889,0.0016423389315605164,0.6145622134208679,0.05202144384384155,0.022021224722266197,-3.0452897548675537,0.7718904614448547,2.86548296202227e-08,-0.00043892860412597656,0.002992447465658188,0.0030875951051712036,0.0,0.9582027196884155,-0.285887211561203,0.0,0.052270885556936264,-0.012392251752316952,0.03112032823264599,0.0,0.0,-0.02190755121409893,-0.9805020093917847,-4.122218608856201,6.021238327026367,7.294997692108154,0.057917121797800064,0.23620329797267914,-0.11210125684738159,0.0,0.0,0.5440478324890137,0.9253439903259277
2,61,-0.23290550708770752,0.385295569896698,-0.012613261118531227,0.1308913230895996,0.2048858404159546,0.6293556690216064,1.0,-0.4306735694408417,0.7265347838401794,0.49759966135025024,-1.9425878524780273,-0.6025526523590088,2.5422556400299072,1.8238108158111572,-2.572714328765869,-3.8688080310821533,3.974658727645874,0.6128012537956238,0.04233654588460922,0.0017179585993289948,0.6124395728111267,0.0419236496090889,0.0016423389315605164,0.6134710311889648,0.05258085951209068,0.022394515573978424,-3.039381742477417,0.7948355674743652,3.036146267731965e-08,-0.00095367431640625,0.003235224634408951,0.003302924335002899,0.0,0.9590839147567749,-0.2829035520553589,0.0,-0.009133814834058285,0.017574725672602654,0.056844498962163925,0.0,0.0,0.07182673364877701,-2.3132736682891846,-2.8049490451812744,3.278181791305542,7.294997692108154,0.03609301149845123,0.24739159643650055,-0.10463541746139526,0.0,0.0,0.550449550151825,0.9309463500976562
2,62,-0.187233567237854,0.2985791563987732,0.03407035768032074,-0.001397937536239624,-0.15202635526657104,0.8519148230552673,1.0,-0.4306192398071289,0.7267326712608337,0.4980676472187042,-1.9421522617340088,-0.6056310534477234,2.5408971309661865,1.8256052732467651,-3.2041072845458984,-4.772136688232422,1.8691304922103882,0.6128067970275879,0.042311448603868484,0.0017242785543203354,0.6124395728111267,0.0419236496090889,0.0016423389315605164,0.6126331090927124,0.052772924304008484,0.022914959117770195,-3.0171213150024414,0.8755481243133545,3.19764019707236e-08,-0.0008445978164672852,0.0031410083174705505,0.002983441576361656,0.0,0.9591431021690369,-0.28267231583595276,0.0,0.004756450187414885,0.003358125453814864,0.0176572035998106,0.0,0.0,0.011190959252417088,-4.1734724044799805,-4.9463276863098145,1.5565701723098755,7.294997692108154,0.019333984702825546,0.2512328624725342,-0.09422656148672104,0.0,0.0,0.5730723142623901,0.9361283183097839
2,63,-0.11730313301086426,0.1743432581424713,-0.173117995262146,-1.0,0.440247505903244,0.7459885478019714,0.9707143902778625,-0.4304943084716797,0.7270002961158752,0.4985313415527344,-1.9415429830551147,-0.6092739701271057,2.5392675399780273,1.832571029663086,-3.2307281494140625,-5.023242950439453,1.9701331853866577,0.6128062009811401,0.04225403070449829,0.0017304588109254837,0.6124395728111267,0.0419236496090889,0.0016423389315605164,0.6121203899383545,0.0524844229221344,0.02261894755065441,-3.003384590148926,0.9215672612190247,3.244212720687756e-08,-0.0006642937660217285,0.003146018832921982,0.002884162589907646,0.0,0.9585533142089844,-0.28461146354675293,0.0,0.02398967556655407,0.004401057492941618,0.00549338711425662,0.0,0.0,-0.028931573033332825,-3.2527496814727783,-5.338115215301514,2.40080189704895,7.294997692108154,0.009080368094146252,0.24546286463737488,-0.10014679282903671,0.0,0.0,0.586048424243927,0.9387238025665283
2,64,-0.23389559984207153,0.07850033789873123,-0.30220842361450195,-0.6788668632507324,-0.10429830849170685,0.5280815958976746,1.0,-0.430426687002182,0.7271534204483032,0.4989264905452728,-1.941199779510498,-0.6122559905052185,2.5381314754486084,1.8380647897720337,-3.037893295288086,-4.526272296905518,1.968691349029541,0.6128066778182983,0.04220233112573624,0.00173935666680336,0.6124395728111267,0.0419236496090889,0.0016423389315605164,0.6112087368965149,0.05185795575380325,0.02186078578233719,-3.0080678462982178,0.9061635136604309,3.3228857887479535e-08,-0.00023698806762695312,0.003264438360929489,0.0027220379561185837,0.0,0.958187460899353,-0.2858918607234955,0.0,0.07548808306455612,0.01670837216079235,-0.014835073612630367,0.0,0.0,-0.011039333418011665,-3.941676616668701,-5.39636754989624,1.8994817733764648,7.294997692108154,-0.00915320124477148,0.23293355107307434,-0.11531004309654236,0.0,0.0,0.581698477268219,0.9433221220970154
2,65,-0.00789136067032814,0.20613236725330353,-0.32695281505584717,-0.6063860654830933,0.03389456868171692,0.3995915651321411,1.0,-0.4303354322910309,0.7272363305091858,0.4991297423839569,-1.941030502319336,-0.6148233413696289,2.537527322769165,1.8379217386245728,-2.9726197719573975,-4.534296989440918,2.472299575805664,0.6128154993057251,0.04218148812651634,0.0017409231513738632,0.6124395728111267,0.0419236496090889,0.0016423389315605164,0.6112134456634521,0.05175739526748657,0.02106667309999466,-3.022266149520874,0.8576206564903259,3.287982508481946e-08,-0.0007106661796569824,0.002794109284877777,0.0029530320316553116,0.0,0.9585522413253784,-0.284682959318161,0.0,0.01710176281630993,-0.03904133662581444,0.01303888764232397,0.0,0.0,0.0007137272623367608,-3.787539482116699,-4.278487205505371,3.679074764251709,7.294997692108154,-0.009058509953320026,0.23092232644557953,-0.13119229674339294,0.0,0.0,0.5680327415466309,0.9475753903388977
2,66,0.08686363697052002,0.1994960755109787,-0.3770464062690735,-0.6105434894561768,-0.38453781604766846,0.4622664451599121,0.9977759122848511,-0.4302629232406616,0.7272385954856873,0.4992355704307556,-1.9410594701766968,-0.6170266270637512,2.5373997688293457,1.835195779800415,-2.902677297592163,-4.502925395965576,3.0222394466400146,0.6128489375114441,0.04215741157531738,0.0017432719469070435,0.6124395728111267,0.0419236496090889,0.0016423389315605164,0.6115733981132507,0.051639482378959656,0.02014419436454773,-3.0301530361175537,0.8293237686157227,3.147830440752841e-08,-0.0010143518447875977,0.003323640674352646,0.0027947500348091125,0.0,0.9591441750526428,-0.282632976770401,0.0,-0.021178720518946648,0.024387536570429802,-0.00604703975841403,0.0,0.0,-0.04976431280374527,-2.610840320587158,-3.8296329975128174,2.6632449626922607,7.294997692108154,-0.0018602539785206318,0.22856402397155762,-0.14964185655117035,0.0,0.0,0.5600957870483398,0.9513425827026367
2,67,0.48334240913391113,0.17688021063804626,-0.2735981345176697,-1.0,-0.5110181570053101,0.338401198387146,0.9350918531417847,-0.4302072525024414,0.7271799445152283,0.49925750494003296,-1.941298007965088,-0.6189104318618774,2.537776231765747,1.8267946243286133,-2.7732670307159424,-4.355052947998047,3.199307918548584,0.6129037737846375,0.042162276804447174,0.0017401892691850662,0.6124395728111267,0.0419236496090889,0.0016423389315605164,0.6133939027786255,0.051445554941892624,0.01967909373342991,-3.0458242893218994,0.7697781920433044,2.8758115888649627e-08,-0.00043278932571411133,0.003239300101995468,0.002903832122683525,0.0,0.9606537222862244,-0.27743783593177795,0.0,0.04709243401885033,0.01140743400901556,0.007826014421880245,0.0,0.0,0.03706358000636101,-3.519233465194702,-4.709852695465088,2.7241618633270264,7.294997692108154,0.034550659358501434,0.22468553483486176,-0.15894386172294617,0.0,0.0,0.5434592366218567,0.9501230716705322
2,68,-0.016343854367733,0.128855898976326,-0.22756139934062958,-0.5791127681732178,0.21834582090377808,0.6272644400596619,0.9652312994003296,-0.4301620125770569,0.7270886301994324,0.4992333650588989,-1.941540002822876,-0.620603084564209,2.5380804538726807,1.8211387395858765,-2.7701709270477295,-4.179994106292725,3.364475727081299,0.6129196882247925,0.04214213415980339,0.001736186444759369,0.6124395728111267,0.0419236496090889,0.0016423389315605164,0.6132029294967651,0.05108598992228508,0.01942163147032261,-3.0400376319885254,0.792323648929596,3.048530672344896e-08,-0.0009428262710571289,0.003163207322359085,0.0029440410435199738,0.0,0.9615467190742493,-0.2742948532104492,0.0,-0.014040469191968441,0.003935694228857756,0.013375281356275082,0.0,0.0,-0.0367995947599411,-0.7583770751953125,-3.11568021774292,2.8034167289733887,7.294997692108154,0.030731400474905968,0.21749421954154968,-0.16409310698509216,0.0,0.0,0.5497482419013977,0.9512568116188049
2,69,0.3127520978450775,0.3877081274986267,-0.15195304155349731,-0.4976126551628113,-0.23732538521289825,0.2691778242588043,1.0,-0.4301402270793915,0.7270203232765198,0.49923911690711975,-1.9417012929916382,-0.6217871904373169,2.5382232666015625,1.8103080987930298,-2.9657340049743652,-4.468061447143555,3.219024181365967,0.6129364371299744,0.04212489351630211,0.0017360188066959381,0.6124395728111267,0.0419236496090889,0.0016423389315605164,0.6142611503601074,0.05172465741634369,0.019467182457447052,-3.058753728866577,0.7166807651519775,2.849530389426036e-08,-0.0010744929313659668,0.002941753715276718,0.002864070236682892,0.0,0.9632495045661926,-0.268166184425354,0.0,-0.02898216061294079,-0.02141028456389904,0.0038932261522859335,0.0,0.0,0.06420143693685532,-3.545261859893799,-5.839136123657227,3.2886528968811035,7.294997692108154,0.05189499258995056,0.23026753962039948,-0.1631820946931839,0.0,0.0,0.5286934971809387,0.9549146294593811
2,70,-0.058057550340890884,0.17871297895908356,-0.241933211684227,0.09127461910247803,-0.6461361646652222,0.615876317024231,0.988969624042511,-0.4301130175590515,0.7269875407218933,0.4992421269416809,-1.9417716264724731,-0.6227161288261414,2.538266658782959,1.8018875122070312,-2.850252628326416,-4.517679214477539,3.4810776710510254,0.6129444241523743,0.04211879149079323,0.0017370115965604782,0.6124395728111267,0.0419236496090889,0.0016423389315605164,0.6138485670089722,0.051531217992305756,0.01917169615626335,-3.0531389713287354,0.740234911441803,2.7355905984904894e-08,-0.0007936954498291016,0.0029228217899799347,0.003056570887565613,0.0,0.9645044207572937,-0.26366859674453735,0.0,0.004320144187659025,-0.021961478516459465,0.027017442509531975,0.0,0.0,0.07685207575559616,-3.3000972270965576,-4.341248512268066,3.3965446949005127,7.294997692108154,0.04364385828375816,0.2263987511396408,-0.16909179091453552,0.0,0.0,0.5352359414100647,0.9574702382087708
2,71,0.06930167227983475,0.18493467569351196,-0.2255709022283554,-0.7692921757698059,0.5986971855163574,0.5617589354515076,0.9936655759811401,-0.4301062822341919,0.7269763350486755,0.49928930401802063,-1.9418152570724487,-0.6233928203582764,2.538191795349121,1.796258807182312,-2.6496424674987793,-4.431825637817383,3.8161416053771973,0.6129401922225952,0.042113929986953735,0.0017340704798698425,0.6124395728111267,0.0419236496090889,0.0016423389315605164,0.6139448285102844,0.05137563869357109,0.018959779292345047,-3.0513947010040283,0.7473927736282349,2.9850745875137363e-08,-0.0007732510566711426,0.002932298928499222,0.0029465891420841217,0.0,0.9654229283332825,-0.2602684199810028,0.0,0.008547305129468441,-0.02081081084907055,0.014437436126172543,0.0,0.0,0.17364168167114258,-3.5575380325317383,-3.171797275543213,5.347682952880859,7.294997692108154,0.0455692894756794,0.2232871949672699,-0.1733301430940628,0.0,0.0,0.5372263193130493,0.9601864218711853
2,72,0.3968283534049988,0.3235457241535187,-0.20009705424308777,0.2575441002845764,-0.19456350803375244,0.5022776126861572,1.0,-0.4300869107246399,0.7269958853721619,0.4993239939212799,-1.941737413406372,-0.6238898038864136,2.5380029678344727,1.7905369997024536,-2.9047515392303467,-4.626614093780518,3.4625840187072754,0.6129492521286011,0.042102452367544174,0.0017384961247444153,0.6124395728111267,0.0419236496090889,0.0016423389315605164,0.6152628064155579,0.05175182223320007,0.018859345465898514,-3.0536892414093018,0.7379614114761353,2.7466047214375067e-08,-0.0007610917091369629,0.002886936068534851,0.003145059570670128,0.0,0.9660544991493225,-0.25793910026550293,0.0,0.008761881850659847,-0.024309752508997917,0.03759674355387688,0.0,0.0,0.015487756580114365,-2.420994758605957,-5.937196254730225,5.4333882331848145,7.294997692108154,0.0719287097454071,0.23081086575984955,-0.17533881962299347,0.0,0.0,0.5346037149429321,0.9631741642951965
2,73,-0.020624347031116486,0.13339167833328247,0.007785342633724213,0.24540212750434875,-0.29028642177581787,0.5537355542182922,0.9633076786994934,-0.43007805943489075,0.7270436882972717,0.4994083344936371,-1.9416311979293823,-0.6242877840995789,2.5376980304718018,1.7861127853393555,-2.593825340270996,-4.548585414886475,3.4382777214050293,0.6129457354545593,0.04210091382265091,0.0017384197562932968,0.6124395728111267,0.0419236496090889,0.0016423389315605164,0.6149155497550964,0.05138629302382469,0.019546452909708023,-3.0524368286132812,0.7431244254112244,3.005867554861652e-08,-0.0007125735282897949,0.0029058419167995453,0.002365998923778534,0.0,0.9666401147842407,-0.2557118535041809,0.0,0.0151634206995368,-0.022228358313441277,-0.05571707710623741,0.0,0.0,-0.005717037245631218,-2.553981304168701,-4.0040974617004395,3.943986415863037,7.294997692108154,0.06498327851295471,0.22350026667118073,-0.16159670054912567,0.0,0.0,0.536039412021637,0.9631842374801636
2,74,0.13262182474136353,0.2091473639011383,-0.09780595451593399,-0.5399683713912964,1.0,0.42066144943237305,1.0,-0.430084228515625,0.7270768880844116,0.4994945228099823,-1.9415220022201538,-0.6245508790016174,2.5373451709747314,1.7792361974716187,-2.7554521560668945,-4.457487106323242,3.1410975456237793,0.61295086145401,0.042092323303222656,0.0017405394464731216,0.6124395728111267,0.0419236496090889,0.0016423389315605164,0.61516934633255,0.05133243650197983,0.0197858028113842,-3.0598578453063965,0.7119514346122742,2.8723622591542153e-08,-0.0008431077003479004,0.002851787954568863,0.002525072544813156,0.0,0.9675271511077881,-0.25232115387916565,0.0,0.0007796286954544485,-0.027823446318507195,-0.03705292567610741,0.0,0.0,-0.017628902569413185,-3.314420700073242,-3.351158618927002,2.2958409786224365,7.294997692108154,0.07005906105041504,0.22242318093776703,-0.15680967271327972,0.0,0.0,0.5273811221122742,0.9659469723701477
2,75,-0.053668063133955,0.20545616745948792,-0.11220641434192657,-0.12415950000286102,0.3532932698726654,0.6200643181800842,1.0,-0.43007799983024597,0.7271295785903931,0.4995715916156769,-1.9413776397705078,-0.6247368454933167,2.536989212036133,1.774817705154419,-2.605792760848999,-4.434905529022217,3.016022205352783,0.6129457950592041,0.0420878566801548,0.0017414074391126633,0.6124395728111267,0.0419236496090889,0.0016423389315605164,0.6147050857543945,0.05126877501606941,0.019953161478042603,-3.053921699523926,0.7369988560676575,2.7512671252338805e-08,-0.0005115866661071777,0.002958294004201889,0.0030179470777511597,0.0,0.9680944681167603,-0.2501351535320282,0.0,0.040826793760061264,-0.01445531751960516,0.021807698532938957,0.0,0.0,-0.02543802000582218,-3.146329641342163,-3.4821040630340576,3.608846664428711,7.294997692108154,0.060774244368076324,0.22114993631839752,-0.15346252918243408,0.0,0.0,0.5343363285064697,0.968502402305603
2,76,0.6555598378181458,0.11724452674388885,-0.13404646515846252,-1.0,-0.2417522817850113,0.2103775441646576,1.0,-0.43003448843955994,0.7271924018859863,0.4995625615119934,-1.9412415027618408,-0.6248420476913452,2.53680157661438,1.7630934715270996,-2.3508682250976562,-4.23297119140625,3.1355748176574707,0.6129528284072876,0.04208679124712944,0.001737428829073906,0.6124395728111267,0.0419236496090889,0.0016423389315605164,0.6169368028640747,0.05087890848517418,0.020026013255119324,-3.0737743377685547,0.6492434740066528,2.6011500509071084e-08,-0.0010347366333007812,0.002976786345243454,0.0023676492273807526,0.0,0.9695687294006348,-0.24438239634037018,0.0,-0.02378225140273571,-0.010586678050458431,-0.05531429871916771,0.0,0.0,-0.016063395887613297,-2.5294458866119385,-2.317535638809204,2.417916774749756,7.294997692108154,0.10540855675935745,0.21335260570049286,-0.15200549364089966,0.0,0.0,0.5100256204605103,0.9708660840988159
2,77,0.22723694145679474,0.36309880018234253,-0.12054072320461273,-0.6631011962890625,-0.8095290660858154,0.7773922681808472,0.9683700799942017,-0.4300735294818878,0.7272090315818787,0.49969226121902466,-1.9411418437957764,-0.6248399615287781,2.5363104343414307,1.759264349937439,-2.5311455726623535,-4.625035762786865,3.093775987625122,0.6129417419433594,0.04208192974328995,0.0017383936792612076,0.6124395728111267,0.0419236496090889,0.0016423389315605164,0.6173939108848572,0.0514407753944397,0.02014407142996788,-3.057570695877075,0.7217110395431519,2.825228229141885e-08,-0.0008823871612548828,0.003264825791120529,0.0025803837925195694,0.0,0.9701839089393616,-0.241939976811409,0.0,-0.0006651877774856985,0.024309305474162102,-0.030366403982043266,0.0,0.0,0.1269589513540268,-2.0197641849517822,-5.749517440795898,2.4438812732696533,7.294997692108154,0.1145508885383606,0.22458995878696442,-0.14964430034160614,0.0,0.0,0.5300895571708679,0.9706788063049316
2,78,-0.09090030193328857,0.4298033118247986,-0.30035266280174255,0.11955568194389343,-0.10949139297008514,0.4628261923789978,0.9831831455230713,-0.43002811074256897,0.7272630333900452,0.4996570646762848,-1.9410265684127808,-0.6248353123664856,2.536252021789551,1.7553540468215942,-2.766374349594116,-5.027843952178955,3.2320258617401123,0.612942636013031,0.04208284243941307,0.001737566664814949,0.6124395728111267,0.0419236496090889,0.0016423389315605164,0.616623044013977,0.052210766822099686,0.019578594714403152,-3.0618083477020264,0.7035161256790161,2.6278957676595383e-08,-0.000390470027923584,0.0033589601516723633,0.002983890473842621,0.0,0.970576822757721,-0.24032270908355713,0.0,0.055038925260305405,0.036676075309515,0.01842990331351757,0.0,0.0,0.05992789939045906,-1.791113018989563,-5.439380645751953,2.4097909927368164,7.294997692108154,0.09913328289985657,0.2399897277355194,-0.16095386445522308,0.0,0.0,0.525041937828064,0.9716172218322754
2,79,0.31900519132614136,0.3126457631587982,-0.33778145909309387,-0.26092541217803955,-0.27719247341156006,0.7736291885375977,1.0,-0.4300607144832611,0.7272456884384155,0.4997173249721527,-1.9410622119903564,-0.624782145023346,2.5361552238464355,1.757493019104004,-2.7372283935546875,-5.232567310333252,3.7807395458221436,0.6129360198974609,0.042086392641067505,0.001736138015985489,0.6124395728111267,0.0419236496090889,0.0016423389315605164,0.6174480319023132,0.05248337984085083,0.01891511306166649,-3.0456089973449707,0.7706300020217896,2.8716470978906727e-08,-0.0007249712944030762,0.0032919980585575104,0.0032534487545490265,0.0,0.9701367616653442,-0.242096945643425,0.0,0.018303392454981804,0.02701610140502453,0.050712522119283676,0.0,0.0,-0.1195741519331932,-3.235124111175537,-5.070309638977051,2.147561550140381,7.294997692108154,0.11563306301832199,0.24544203281402588,-0.17422348260879517,0.0,0.0,0.5436965823173523,0.9737471342086792
2,80,-0.45217448472976685,0.31824806332588196,-0.20949295163154602,-0.3985208570957184,-0.31078803539276123,0.2069718837738037,0.9432129859924316,-0.43004149198532104,0.7272024154663086,0.49961233139038086,-1.9411627054214478,-0.6248233318328857,2.5364742279052734,1.7510769367218018,-2.9222214221954346,-5.40381383895874,3.7263689041137695,0.6129408478736877,0.04208676889538765,0.0017365273088216782,0.6124395728111267,0.0419236496090889,0.0016423389315605164,0.6153175234794617,0.05275655910372734,0.018782775849103928,-3.06719708442688,0.6796374320983887,2.7423105564139405e-08,-0.0009976029396057129,0.003076460212469101,0.0026490725576877594,0.0,0.9711143970489502,-0.23817658424377441,0.0,-0.01650094799697399,0.003102868562564254,-0.021641848608851433,0.0,0.0,0.07876764237880707,-0.5181405544281006,-4.867280960083008,2.2583556175231934,7.294997692108154,0.07302325963973999,0.2509056031703949,-0.1768702119588852,0.0,0.0,0.518427848815918,0.9714558124542236
2,81,0.1679118424654007,-0.06758024543523788,-0.19835279881954193,-0.39459994435310364,-0.5825280547142029,0.4992259442806244,1.0,-0.43005627393722534,0.7271356582641602,0.4995669722557068,-1.9413102865219116,-0.624943733215332,2.536705493927002,1.745728611946106,-2.6109235286712646,-4.702224254608154,3.652710199356079,0.612946093082428,0.0420866459608078,0.0017358940094709396,0.6124395728111267,0.0419236496090889,0.0016423389315605164,0.6156736016273499,0.05156155675649643,0.018702169880270958,-3.0683465003967285,0.6744289994239807,2.767217743837591e-08,-0.0009446144104003906,0.0031568892300128937,0.0027375277131795883,0.0,0.9715810418128967,-0.23625972867012024,0.0,-0.008919238112866879,0.013777612708508968,-0.010953917168080807,0.0,0.0,-0.10161285102367401,-3.540607213973999,-3.8238003253936768,2.9412312507629395,7.294997692108154,0.08014395833015442,0.22700557112693787,-0.17848233878612518,0.0,0.0,0.5169869065284729,0.9735978245735168
2,82,0.02961866185069084,0.10215240716934204,-0.18357965350151062,-0.6082785129547119,-0.031135231256484985,0.2888515591621399,1.0,-0.430057168006897,0.7270767092704773,0.49949923157691956,-1.9414209127426147,-0.6251427531242371,2.5369136333465576,1.7349371910095215,-2.424611806869507,-4.485066890716553,3.6196532249450684,0.6129502058029175,0.042086631059646606,0.0017375573515892029,0.6124395728111267,0.0419236496090889,0.0016423389315605164,0.6154839992523193,0.05109309405088425,0.018683042377233505,-3.0813241004943848,0.6124112010002136,2.4885375538019616e-08,-0.0012139678001403809,0.003297809511423111,0.0029476862400770187,0.0,0.9727180004119873,-0.2314353734254837,0.0,-0.04149198159575462,0.03358438238501549,0.014149769209325314,0.0,0.0,-0.22493314743041992,-3.0310170650482178,-3.122197151184082,3.255446672439575,7.294997692108154,0.07635241001844406,0.21763627231121063,-0.17886486649513245,0.0,0.0,0.4998670220375061,0.9755791425704956
2,83,-0.25251099467277527,0.07366299629211426,-0.2788805663585663,-0.9695362448692322,0.31618422269821167,0.5644187331199646,0.9926118850708008,-0.43004781007766724,0.7270730137825012,0.4994708001613617,-1.9414407014846802,-0.6253442764282227,2.5370185375213623,1.7270768880844116,-2.187382936477661,-4.178025722503662,3.909240245819092,0.612957775592804,0.04208754375576973,0.001737331971526146,0.6124395728111267,0.0419236496090889,0.0016423389315605164,0.6142500638961792,0.050552885979413986,0.018307771533727646,-3.0777790546417236,0.6299855709075928,2.4057747793904127e-08,-0.0005115270614624023,0.002782583236694336,0.002495894208550453,0.0,0.974277913570404,-0.22492925822734833,0.0,0.041098590940237045,-0.027168987318873405,-0.04002593085169792,0.0,0.0,0.4183454215526581,-3.5933165550231934,-4.962091445922852,2.2122607231140137,7.294997692108154,0.051673613488674164,0.2068321406841278,-0.18637032806873322,0.0,0.0,0.5047111511230469,0.9768573641777039
2,84,0.04377456381917,0.019818365573883057,-0.24469660222530365,0.3230273723602295,0.5220693349838257,0.4235506057739258,0.9900182485580444,-0.43006956577301025,0.7270746231079102,0.4995259642601013,-1.9414137601852417,-0.6254814267158508,2.5368101596832275,1.7189279794692993,-1.832226276397705,-3.8195297718048096,4.197327613830566,0.6129546761512756,0.04207954183220863,0.0017364639788866043,0.6124395728111267,0.0419236496090889,0.0016423389315605164,0.6142204403877258,0.0498511865735054,0.018088921904563904,-3.0822198390960693,0.6078858971595764,2.5098202627305e-08,-0.0011431574821472168,0.0027608126401901245,0.0027885455638170242,0.0,0.9750061631202698,-0.22173665463924408,0.0,-0.03233670815825462,-0.028682200238108635,-0.004931911360472441,0.0,0.0,0.21206550300121307,-0.023870229721069336,-3.81654691696167,3.952298879623413,7.294997692108154,0.0510808490216732,0.19279813766479492,-0.19074729084968567,0.0,0.0,0.4986206591129303,0.9778450131416321
2,85,0.03394052013754845,0.38594257831573486,-0.19840992987155914,0.05724048614501953,0.18134701251983643,0.2140844166278839,1.0,-0.43007320165634155,0.7270979285240173,0.4995472729206085,-1.9413350820541382,-0.6254494190216064,2.5366029739379883,1.7069826126098633,-2.177593231201172,-4.170132637023926,3.926032781600952,0.6129544377326965,0.04208265617489815,0.0017359592020511627,0.6124395728111267,0.0419236496090889,0.0016423389315605164,0.6141561269760132,0.05057588964700699,0.018060170114040375,-3.0931859016418457,0.5493694543838501,2.2078358696830946e-08,-0.0007645487785339355,0.0031731314957141876,0.002795567736029625,0.0,0.97608882188797,-0.21686528623104095,0.0,0.013825892470777035,0.022750047966837883,-0.00392742408439517,0.0,0.0,-0.018486829474568367,-1.8017451763153076,-3.8315494060516357,4.59474515914917,7.294997692108154,0.04979459568858147,0.20729221403598785,-0.19132231175899506,0.0,0.0,0.4772683084011078,0.979507565498352
2,86,0.2485436350107193,0.17174863815307617,-0.12006161361932755,0.3202863335609436,-0.16262665390968323,0.7765198945999146,1.0,-0.43007132411003113,0.7271394729614258,0.49957478046417236,-1.9412347078323364,-0.6253763437271118,2.5364294052124023,1.700492262840271,-1.947282075881958,-4.142879486083984,3.9836297035217285,0.6129580736160278,0.04207810014486313,0.0017362181097269058,0.6124395728111267,0.0419236496090889,0.0016423389315605164,0.6149018406867981,0.05044252425432205,0.01832755096256733,-3.0814266204833984,0.6118955016136169,2.4909638796088984e-08,-0.000986933708190918,0.0030849091708660126,0.0027650296688079834,0.0,0.9768906831741333,-0.21326002478599548,0.0,-0.013475417159497738,0.012662260793149471,-0.007636695634573698,0.0,0.0,0.09788460284471512,-1.6398547887802124,-4.347250938415527,3.2750179767608643,7.294997692108154,0.06470926105976105,0.2046249359846115,-0.18597471714019775,0.0,0.0,0.49972498416900635,0.9810453653335571
2,87,0.22552885115146637,0.3277941942214966,-0.07377591729164124,-0.2140173614025116,-0.08497311919927597,1.0,1.0,-0.43009763956069946,0.72715824842453,0.49967196583747864,-1.9411755800247192,-0.6255589127540588,2.5361440181732178,1.7093063592910767,-2.166543483734131,-4.448484420776367,3.581547498703003,0.6129467487335205,0.0420747846364975,0.0017374195158481598,0.6124395728111267,0.0419236496090889,0.0016423389315605164,0.6155052781105042,0.05090467259287834,0.018748536705970764,-3.051358938217163,0.7475389242172241,2.984362268421137e-08,-0.000960230827331543,0.002894919365644455,0.0034222695976495743,0.0,0.9758871793746948,-0.21778643131256104,0.0,-0.007896422408521175,-0.010499059222638607,0.07092452794313431,0.0,0.0,0.02208998054265976,-3.4722137451171875,-4.296573638916016,3.7969107627868652,7.294997692108154,0.07677759230136871,0.2138678878545761,-0.17755502462387085,0.0,0.0,0.5372669696807861,0.982467770576477
2,88,-0.12272456288337708,0.14780525863170624,-0.02322215586900711,-0.17429736256599426,-0.7401119470596313,0.7472561001777649,0.8703792691230774,-0.4301470220088959,0.7270769476890564,0.4997043013572693,-1.9413597583770752,-0.6259313821792603,2.536282539367676,1.7216025590896606,-2.1142737865448,-4.391204833984375,3.41194486618042,0.6129115223884583,0.04205397143959999,0.0017404016107320786,0.6124395728111267,0.0419236496090889,0.0016423389315605164,0.61475670337677,0.05065679922699928,0.019327614456415176,-3.0369560718536377,0.8040544390678406,2.9906537690749246e-08,-0.0014289617538452148,0.002691522240638733,0.002490447834134102,0.0,0.9744479656219482,-0.22414587438106537,0.0,-0.06047486886382103,-0.03511324152350426,-0.0411783866584301,0.0,0.0,-0.1082707941532135,-3.2290401458740234,-3.542374610900879,3.4675354957580566,7.294997692108154,0.061806418001651764,0.20891037583351135,-0.1659734696149826,0.0,0.0,0.5530251264572144,0.9740563631057739
2,89,-0.13752582669258118,0.1286732405424118,-0.10566633939743042,-0.21428175270557404,0.18958309292793274,0.5220043659210205,1.0,-0.4301944375038147,0.7269469499588013,0.4996933341026306,-1.9416767358779907,-0.6265025734901428,2.536691665649414,1.7325479984283447,-2.1093130111694336,-4.12513542175293,3.327035903930664,0.6128803491592407,0.04203716292977333,0.0017418283969163895,0.6124395728111267,0.0419236496090889,0.0016423389315605164,0.6140087842941284,0.050355736166238785,0.01955389231443405,-3.0391499996185303,0.7957217693328857,3.0317764299070404e-08,-0.0008552074432373047,0.0032479502260684967,0.0027562715113162994,0.0,0.9735321402549744,-0.22806251049041748,0.0,0.011944769881665707,0.030978618189692497,-0.009374319575726986,0.0,0.0,0.17725123465061188,-2.7411539554595947,-3.6982555389404297,3.150653839111328,7.294997692108154,0.04684799164533615,0.20288915932178497,-0.16144786775112152,0.0,0.0,0.5506972074508667,0.9760032296180725
2,90,0.3975234925746918,0.2829316556453705,-0.16567596793174744,0.008144676685333252,0.4813549220561981,0.4665829539299011,1.0,-0.43021726608276367,0.7268438935279846,0.4996548891067505,-1.941953182220459,-0.6269457936286926,2.537132501602173,1.7396777868270874,-2.2261197566986084,-4.141136646270752,3.243600368499756,0.6128700375556946,0.042028073221445084,0.0017414521425962448,0.6124395728111267,0.0419236496090889,0.0016423389315605164,0.6153245568275452,0.050656069070100784,0.0195380300283432,-3.044983148574829,0.7731000185012817,2.859567693747067e-08,-0.000924527645111084,0.0028197169303894043,0.0029500387609004974,0.0,0.9726426601409912,-0.23178017139434814,0.0,0.005543231498450041,-0.02166554145514965,0.014225541613996029,0.0,0.0,0.06645388156175613,-3.561746120452881,-5.319324016571045,3.9207236766815186,7.294997692108154,0.07316362857818604,0.20889577269554138,-0.16176515817642212,0.0,0.0,0.5443850159645081,0.9778040051460266
2,91,-0.11265470087528229,0.24855738878250122,-0.13047507405281067,-0.4423539340496063,0.6569793224334717,0.7793089151382446,0.9351969957351685,-0.4302588999271393,0.7267253398895264,0.49964234232902527,-1.9422070980072021,-0.6272761821746826,2.537428140640259,1.7507816553115845,-2.225893020629883,-4.289965629577637,3.343695878982544,0.61284339427948,0.042010679841041565,0.0017445962876081467,0.6124395728111267,0.0419236496090889,0.0016423389315605164,0.6146273612976074,0.05080488324165344,0.019655432552099228,-3.028270959854126,0.8361703753471375,3.113696322998294e-08,-0.00084686279296875,0.002872094511985779,0.003151319921016693,0.0,0.9713013172149658,-0.23735377192497253,0.0,0.018374918028712273,-0.01546963956207037,0.037837471812963486,0.0,0.0,-0.013821616768836975,-2.436474561691284,-4.626742362976074,3.0952954292297363,7.294997692108154,0.059219323098659515,0.21187208592891693,-0.159417062997818,0.0,0.0,0.5620143413543701,0.9746066927909851
2,92,-0.006696533411741257,0.016286209225654602,-0.12004299461841583,-1.0,0.4212539494037628,0.051229655742645264,1.0,-0.4301310181617737,0.7270253300666809,0.4992222189903259,-1.9413131475448608,-0.6215799450874329,2.5368587970733643,1.7417865991592407,-0.07047818601131439,-1.9153048992156982,4.973699569702148,0.6128560900688171,0.04202131927013397,0.0017326492816209793,0.6124395728111267,0.0419236496090889,0.0016423389315605164,0.6143800020217896,0.05007101967930794,0.01980317011475563,-3.062930107116699,0.6986162066459656,2.6514035411651093e-08,-0.000834345817565918,0.0029543638229370117,0.0028130430728197098,0.0,0.971599817276001,-0.236235573887825,0.0,0.008840559981763363,0.002470314269885421,-0.0019180028466507792,0.0,0.0,-0.19823192059993744,-0.44423145055770874,-2.1464807987213135,4.7090277671813965,7.294997692108154,0.05427281931042671,0.19719479978084564,-0.15646232664585114,0.0,0.0,0.5236837267875671,0.9765122532844543
2,93,-0.02443205937743187,0.3310728669166565,-0.06818068772554398,-0.2396521270275116,-0.40515875816345215,0.13631901144981384,1.0,-0.4299834668636322,0.7275914549827576,0.49903666973114014,-1.9397144317626953,-0.6149091720581055,2.534839153289795,1.7245601415634155,0.11088187247514725,-1.8387863636016846,4.886123180389404,0.6128813624382019,0.04204566404223442,0.0017220843583345413,0.6124395728111267,0.0419236496090889,0.0016423389315605164,0.6140847206115723,0.05057334899902344,0.020134415477514267,-3.0850541591644287,0.5933340787887573,2.290861189635507e-08,-0.0009006261825561523,0.0029204636812210083,0.003154190257191658,0.0,0.9731622338294983,-0.22976388037204742,0.0,-0.008862017653882504,0.006223618518561125,0.03936029598116875,0.0,0.0,0.05101826786994934,1.000292420387268,-1.1716642379760742,5.503835201263428,7.294997692108154,0.048366595059633255,0.20724137127399445,-0.1498374342918396,0.0,0.0,0.494614839553833,0.9782748222351074
2,94,0.3999052941799164,0.3429916501045227,-0.03840748593211174,0.20736438035964966,-0.25004953145980835,0.4311761260032654,1.0,-0.4296945035457611,0.7285677194595337,0.49909311532974243,-1.9372797012329102,-0.608585774898529,2.5315663814544678,1.707446813583374,0.5016092658042908,-2.338178873062134,4.629286766052246,0.6129325032234192,0.042105577886104584,0.0017023012042045593,0.6124395728111267,0.0419236496090889,0.0016423389315605164,0.6154037117958069,0.05108270049095154,0.020552515983581543,-3.0883336067199707,0.5760221481323242,2.3717261043998406e-08,-0.0005364418029785156,0.002536393702030182,0.0026644431054592133,0.0,0.9744643568992615,-0.22431637346744537,0.0,0.015892980620265007,-0.03755762800574303,-0.01799940876662731,0.0,0.0,0.02013571187853813,-0.6371778845787048,-3.641494035720825,4.234277725219727,7.294997692108154,0.0747470036149025,0.21742844581604004,-0.14147542417049408,0.0,0.0,0.48985424637794495,0.9799051284790039
2,95,-0.22814249992370605,0.39065784215927124,0.03742180019617081,-0.3843701481819153,-0.2186242640018463,0.344707727432251,1.0,-0.42944031953811646,0.7297487854957581,0.4995354115962982,-1.9342395067214966,-0.6023008227348328,2.5265069007873535,1.6905676126480103,-0.025091249495744705,-2.497636318206787,4.355897426605225,0.6129202842712402,0.04214279353618622,0.001689516007900238,0.6124395728111267,0.0419236496090889,0.0016423389315605164,0.6142672300338745,0.051732681691646576,0.0212237611413002,-3.0920188426971436,0.555899977684021,2.1775511171995277e-08,-0.0005931258201599121,0.0032355599105358124,0.002966752275824547,0.0,0.9757018089294434,-0.21897965669631958,0.0,-1.4305113836599048e-05,0.04846617206931114,0.018848998472094536,0.0,0.0,-0.022883256897330284,-0.8562359809875488,-2.7717621326446533,5.409603118896484,7.294997692108154,0.05201736092567444,0.2304280400276184,-0.12805050611495972,0.0,0.0,0.4789620637893677,0.9814131259918213
2,96,-0.05200588330626488,0.3156103789806366,0.01942061260342598,0.25628092885017395,-0.45023325085639954,0.5073758959770203,1.0,-0.4291146993637085,0.7311010956764221,0.500085711479187,-1.9307904243469238,-0.5964183807373047,2.5207526683807373,1.6747572422027588,-0.3051775097846985,-2.694737195968628,3.993565559387207,0.6129016876220703,0.04217749834060669,0.0016795862466096878,0.6124395728111267,0.0419236496090889,0.0016423389315605164,0.6138769388198853,0.052052296698093414,0.021777093410491943,-3.09411358833313,0.5441206097602844,2.2321616555132096e-08,-0.00046181678771972656,0.0028743669390678406,0.00276285782456398,0.0,0.9770057201385498,-0.21312333643436432,0.0,0.003397464519366622,0.006609409581869841,-0.005784630309790373,0.0,0.0,0.14367832243442535,-2.5595130920410156,-1.7511341571807861,5.401025772094727,7.294997692108154,0.04421117529273033,0.23682035505771637,-0.11698387563228607,0.0,0.0,0.4810943305492401,0.9828079342842102
2,97,-0.4751664698123932,0.21425186097621918,0.060548655688762665,0.1865341067314148,-0.17748981714248657,0.6635776162147522,1.0,-0.4288259446620941,0.7323229908943176,0.5006256699562073,-1.9276936054229736,-0.5913726091384888,2.515401840209961,1.660860300064087,-0.7975013852119446,-2.4938604831695557,3.835223913192749,0.6128655076026917,0.042225781828165054,0.00166422501206398,0.6124395728111267,0.0419236496090889,0.0016423389315605164,0.6119281649589539,0.05196761712431908,0.022443220019340515,-3.084933042526245,0.5939643979072571,2.4315676583341883e-08,-0.0003171563148498535,0.0032013356685638428,0.0028159990906715393,0.0,0.9780209064483643,-0.2084805816411972,0.0,0.01409053709357977,0.04599585756659508,0.00133886921685189,0.0,0.0,0.14790739119052887,-1.022576928138733,-2.2195982933044434,4.913806438446045,7.294997692108154,0.005235683172941208,0.23512676358222961,-0.10366135835647583,0.0,0.0,0.49478837847709656,0.9840980768203735
2,98,0.07992792129516602,0.4344622492790222,0.03986596688628197,-0.596045732498169,-0.9154186248779297,0.8439209461212158,1.0,-0.42865413427352905,0.7332194447517395,0.5010897517204285,-1.9253578186035156,-0.5872250199317932,2.511107921600342,1.6593291759490967,-1.0726549625396729,-2.833529233932495,3.4772703647613525,0.6127784848213196,0.042247746139764786,0.0016575977206230164,0.6124395728111267,0.0419236496090889,0.0016423389315605164,0.6122084259986877,0.05271555110812187,0.022981751710176468,-3.0651333332061768,0.6888856887817383,2.7337232921809118e-08,-0.00026410818099975586,0.002421002835035324,0.0028040893375873566,0.0,0.9776322841644287,-0.21030952036380768,0.0,0.021715162321925163,-0.04817783460021019,-4.1127201257040724e-05,0.0,0.0,-0.05152016505599022,-1.7481422424316406,-4.7170729637146,2.586690902709961,7.294997692108154,0.010840789414942265,0.2500854432582855,-0.09289068728685379,0.0,0.0,0.5209882259368896,0.9852914214134216
2,99,0.11973082274198532,0.5239355564117432,-0.003941290080547333,-0.6593449711799622,-0.24566704034805298,0.3822518587112427,1.0,-0.42850109934806824,0.7338883876800537,0.5013664960861206,-1.9236139059066772,-0.583924412727356,2.5080454349517822,1.658873438835144,-1.1953299045562744,-3.4312760829925537,3.370459794998169,0.6127125024795532,0.042269233614206314,0.0016532577574253082,0.6124395728111267,0.0419236496090889,0.0016423389315605164,0.612617015838623,0.05374307557940483,0.02331550233066082,-3.0733518600463867,0.6512402892112732,2.609562699262824e-08,-0.0012716054916381836,0.0026522912085056305,0.0025611594319343567,0.0,0.977508008480072,-0.2108890861272812,0.0,-0.1001286432147026,-0.020790694281458855,-0.029232947155833244,0.0,0.0,0.09683355689048767,-0.17334997653961182,-3.6351897716522217,3.623872995376587,7.294997692108154,0.019012190401554108,0.2706359028816223,-0.08621568977832794,0.0,0.0,0.5105770826339722,0.9863951802253723
2,100,-0.08621523529291153,0.3488735258579254,-0.20109298825263977,-0.6966907978057861,-0.18976657092571259,1.0,1.0,-0.428438663482666,0.7343371510505676,0.5016462802886963,-1.9224611520767212,-0.5813102722167969,2.505826950073242,1.6674853563308716,-1.5123329162597656,-3.6994733810424805,3.721785068511963,0.6126140356063843,0.042313557118177414,0.0016497503966093063,0.6124395728111267,0.0419236496090889,0.0016423389315605164,0.6122221350669861,0.05403663218021393,0.022884467616677284,-3.0423057079315186,0.7835691571235657,3.0031142017605816e-08,-0.00026106834411621094,0.0028005018830299377,0.0028821397572755814,0.0,0.9762618541717529,-0.21657724678516388,0.0,0.02600669674575329,-0.008784233592450619,0.009343697689473629,0.0,0.0,-0.0016815427225083113,-0.37862205505371094,-2.179555892944336,3.9205291271209717,7.294997692108154,0.01111564226448536,0.27650707960128784,-0.09483639895915985,0.0,0.0,0.5473046898841858,0.98741614818573
2,101,0.034136995673179626,0.2580871880054474,-0.08903972059488297,-0.8657174706459045,-0.5244573354721069,0.24905335903167725,0.9916567206382751,-0.4283566176891327,0.7345855832099915,0.5016773343086243,-1.9217544794082642,-0.5793709754943848,2.5046627521514893,1.6709920167922974,-1.4258737564086914,-3.5025737285614014,3.515378952026367,0.612567126750946,0.04233669117093086,0.0016517918556928635,0.6124395728111267,0.0419236496090889,0.0016423389315605164,0.6123085618019104,0.05396752059459686,0.022906217724084854,-3.0619068145751953,0.703087568283081,2.7725334916794964e-08,-0.00037801265716552734,0.0027397386729717255,0.0026480648666620255,0.0,0.97584068775177,-0.21847306191921234,0.0,0.011637209914624691,-0.016195623204112053,-0.019200367853045464,0.0,0.0,0.1555623710155487,-2.573296546936035,-4.9482927322387695,2.4316534996032715,7.294997692108154,0.01284322701394558,0.27512478828430176,-0.09440139681100845,0.0,0.0,0.5249231457710266,0.9877343773841858
2,102,-0.017519298940896988,0.33962398767471313,-0.09428942203521729,0.08284857869148254,-0.4274550974369049,0.6692283749580383,0.9898379445075989,-0.42832285165786743,0.7346466183662415,0.5016588568687439,-1.9215426445007324,-0.5783111453056335,2.504293203353882,1.6760822534561157,-1.5467110872268677,-3.6183876991271973,3.4651577472686768,0.6125434637069702,0.04235246032476425,0.001651722937822342,0.6124395728111267,0.0419236496090889,0.0016423389315605164,0.6121945977210999,0.05420953035354614,0.02290663681924343,-3.0526881217956543,0.742091715335846,2.8687445308150927e-08,-0.0007283687591552734,0.003124743700027466,0.0026472117751836777,0.0,0.9751496911048889,-0.22154037654399872,0.0,-0.028767583891749382,0.028757749125361443,-0.019436849281191826,0.0,0.0,0.11999011039733887,-3.0452029705047607,-2.372093677520752,3.3233866691589355,7.294997692108154,0.010564741678535938,0.27996498346328735,-0.09439300000667572,0.0,0.0,0.5357521772384644,0.9878922700881958
2,103,-0.37265586853027344,0.26186108589172363,-0.16467344760894775,0.10057687759399414,-0.8309091329574585,0.5446537137031555,1.0,-0.4283440113067627,0.7345057129859924,0.5015445947647095,-1.921879768371582,-0.5779923796653748,2.5049304962158203,1.6831220388412476,-1.427183985710144,-3.6060080528259277,3.7246222496032715,0.612520158290863,0.04237174987792969,0.0016491841524839401,0.6124395728111267,0.0419236496090889,0.0016423389315605164,0.6107566952705383,0.05414159968495369,0.022642934694886208,-3.052103281021118,0.7444940209388733,2.8926036677034972e-08,-0.0002773404121398926,0.003581162542104721,0.002612624317407608,0.0,0.9742303490638733,-0.22554101049900055,0.0,0.02732991985976696,0.08130490034818649,-0.02331465296447277,0.0,0.0,0.010067921131849289,-2.868986129760742,-3.140293836593628,3.524735450744629,7.294997692108154,-0.018193162977695465,0.2786064147949219,-0.0996670350432396,0.0,0.0,0.5364202260971069,0.9888008832931519
